( Made using CamBam - http://www.cambam.co.uk )
( ScottBernardi_VCdelay_PCB 2/7/2016 2:11:14 PM )
( T1 : 0.04 )
( T2 : 0.031 )
( T3 : 0.0 )
( T6 : 0.0625 )
G20 G90 G64 G40
G0 Z0.0625
( T1 : 0.04 )
T1 M6
( .04 Drills )
G17
M3 S1000
G0 X0.9251 Y3.7956
G98
G81 X0.9251 Y3.7956 Z-0.07 R0.0625 F20.0
G81 X1.0242 Y3.7941 Z-0.07
G81 X1.1249 Y3.7956 Z-0.07
G81 X1.5244 Y3.1951 Z-0.07
G81 X1.6236 Y3.1938 Z-0.07
G81 X1.8731 Y3.3966 Z-0.07
G81 X2.4233 Y3.6955 Z-0.07
G81 X2.4223 Y3.796 Z-0.07
G81 X2.8732 Y2.0461 Z-0.07
G81 X1.5241 Y1.2952 Z-0.07
G81 X1.55 Y0.2448 Z-0.07
G81 X1.6506 Z-0.07
G81 X1.75 Z-0.07
G81 X2.1246 Z-0.07
G81 X2.2241 Z-0.07
G81 X0.3245 Y0.8948 Z-0.07
G81 Y0.9954 Z-0.07
G81 Y1.4466 Z-0.07
G81 Y1.5463 Z-0.07
G81 Y1.6443 Z-0.07
G81 X0.324 Y1.8947 Z-0.07
G81 Y1.9954 Z-0.07
G81 X0.3271 Y2.6956 Z-0.07
G81 X0.4231 Z-0.07
G80
( .031 Drills )
( T2 : 0.031 )
T2 M6
M3 S1000
G0 X1.3736 Y0.5445
G98
G81 X1.3736 Y0.5445 Z-0.07 R0.0625
G81 X1.1231 Y0.5485 Z-0.07
G81 Y0.6458 Z-0.07
G81 Y0.7457 Z-0.07
G81 Y0.8955 Z-0.07
G81 Y0.9954 Z-0.07
G81 Y1.0952 Z-0.07
G81 Y1.1964 Z-0.07
G81 Y1.2963 Z-0.07
G81 Y1.3948 Z-0.07
G81 X1.1218 Y1.5459 Z-0.07
G81 X1.1231 Y1.697 Z-0.07
G81 X0.8734 Y1.7969 Z-0.07
G81 X0.8222 Y1.697 Z-0.07
G81 X0.6736 Z-0.07
G81 Y1.7956 Z-0.07
G81 X0.6724 Y1.8955 Z-0.07
G81 X0.5725 Y1.7969 Z-0.07
G81 X0.4726 Y1.747 Z-0.07
G81 Y1.3462 Z-0.07
G81 X0.3228 Y1.2463 Z-0.07
G81 Y1.1465 Z-0.07
G81 X0.6224 Z-0.07
G81 Y1.2463 Z-0.07
G81 X0.8222 Y1.2963 Z-0.07
G81 Y1.1964 Z-0.07
G81 X0.8234 Y1.0965 Z-0.07
G81 Y0.9954 Z-0.07
G81 Y0.8968 Z-0.07
G81 Y0.7457 Z-0.07
G81 Y0.6445 Z-0.07
G81 X0.8247 Y0.5447 Z-0.07
G81 X0.8222 Y0.4461 Z-0.07
G81 X0.7236 Z-0.07
G81 X0.8222 Y0.2451 Z-0.07
G81 X0.5725 Y0.2463 Z-0.07
G81 X0.4739 Y0.2451 Z-0.07
G81 X0.3728 Y0.2463 Z-0.07
G81 X0.3228 Y0.4461 Z-0.07
G81 X0.3215 Y0.6458 Z-0.07
G81 X0.3228 Y0.7444 Z-0.07
G81 X0.6224 Y0.7457 Z-0.07
G81 Y0.6471 Z-0.07
G81 X1.1243 Y0.4461 Z-0.07
G81 X1.1231 Y0.2451 Z-0.07
G81 X1.3736 Y0.8459 Z-0.07
G81 X1.8243 Y0.6473 Z-0.07
G81 X1.9229 Z-0.07
G81 Y0.7445 Z-0.07
G81 X1.9215 Y0.8459 Z-0.07
G81 X1.9243 Y1.0473 Z-0.07
G81 X1.8243 Z-0.07
G81 X1.9229 Y1.1473 Z-0.07
G81 X1.9215 Y1.2459 Z-0.07
G81 X1.9229 Y1.3473 Z-0.07
G81 X2.0229 Y1.3459 Z-0.07
G81 Y1.7459 Z-0.07
G81 X1.8229 Y1.8952 Z-0.07
G81 Y1.9966 Z-0.07
G81 X1.773 Y2.1466 Z-0.07
G81 X1.7711 Y2.3978 Z-0.07
G81 X1.773 Y2.4972 Z-0.07
G81 X1.4717 Y2.497 Z-0.07
G81 X1.4731 Y2.397 Z-0.07
G81 X1.3745 Y2.2477 Z-0.07
G81 X1.3731 Y2.1463 Z-0.07
G81 X1.2731 Z-0.07
G81 X1.1238 Y2.1477 Z-0.07
G81 Y2.2448 Z-0.07
G81 Y2.3448 Z-0.07
G81 Y2.4448 Z-0.07
G81 X1.1224 Y2.5462 Z-0.07
G81 X1.1238 Y2.6448 Z-0.07
G81 Y2.7969 Z-0.07
G81 Y2.8955 Z-0.07
G81 Y2.9969 Z-0.07
G81 X1.1224 Y3.0969 Z-0.07
G81 Y3.1969 Z-0.07
G81 X1.2731 Y2.9969 Z-0.07
G81 X1.3717 Y2.9955 Z-0.07
G81 X1.3731 Y2.7955 Z-0.07
G81 Y2.6462 Z-0.07
G81 X1.6737 Y2.799 Z-0.07
G81 Y2.9977 Z-0.07
G81 X1.4252 Y3.1941 Z-0.07
G81 X1.3731 Y3.3082 Z-0.07
G81 X1.3717 Y3.5969 Z-0.07
G81 X1.4731 Y3.5955 Z-0.07
G81 X1.5741 Y3.797 Z-0.07
G81 X1.2731 Y3.7955 Z-0.07
G81 X0.7717 Z-0.07
G81 X0.6731 Y3.5955 Z-0.07
G81 X0.5731 Y3.5969 Z-0.07
G81 X0.4731 Y3.7955 Z-0.07
G81 X0.7731 Y3.3096 Z-0.07
G81 X0.8224 Y3.1969 Z-0.07
G81 X0.8238 Y3.0955 Z-0.07
G81 Y2.9969 Z-0.07
G81 Y2.8955 Z-0.07
G81 Y2.7955 Z-0.07
G81 X0.8224 Y2.6462 Z-0.07
G81 Y2.5477 Z-0.07
G81 Y2.4462 Z-0.07
G81 Y2.3463 Z-0.07
G81 X0.8238 Y2.2463 Z-0.07
G81 X0.8224 Y2.1463 Z-0.07
G81 X0.6224 Y2.1477 Z-0.07
G81 Y2.2463 Z-0.07
G81 Y2.3477 Z-0.07
G81 X0.6238 Y2.4462 Z-0.07
G81 X0.6224 Y2.6448 Z-0.07
G81 X0.6238 Y2.7955 Z-0.07
G81 X0.6224 Y2.8955 Z-0.07
G81 X0.3238 Z-0.07
G81 X0.3224 Y2.7969 Z-0.07
G81 Y2.3463 Z-0.07
G81 Y2.2463 Z-0.07
G81 Y2.1448 Z-0.07
G81 X0.8234 Y1.3974 Z-0.07
G81 X1.4243 Y1.5445 Z-0.07
G81 X1.5226 Y1.7974 Z-0.07
G81 X2.3215 Y1.6473 Z-0.07
G81 X2.4736 Y1.598 Z-0.07
G81 X2.6228 Y1.7463 Z-0.07
G81 X2.7731 Y1.6456 Z-0.07
G81 X2.9234 Y1.7959 Z-0.07
G81 X3.0225 Z-0.07
G81 X2.7731 Y1.9462 Z-0.07
G81 X2.6213 Z-0.07
G81 X2.4722 Y1.8966 Z-0.07
G81 X2.3229 Y1.9459 Z-0.07
G81 X2.2712 Y2.1476 Z-0.07
G81 X2.2727 Y2.2437 Z-0.07
G81 X2.124 Y2.3955 Z-0.07
G81 X2.1224 Y2.4946 Z-0.07
G81 X2.124 Y2.5969 Z-0.07
G81 Y2.696 Z-0.07
G81 X2.1224 Y2.7967 Z-0.07
G81 Y2.8959 Z-0.07
G81 X2.124 Y2.9966 Z-0.07
G81 Y3.0958 Z-0.07
G81 X2.1735 Y3.2476 Z-0.07
G81 Y3.3963 Z-0.07
G81 X2.3734 Z-0.07
G81 Y3.2445 Z-0.07
G81 X2.4245 Y3.0973 Z-0.07
G81 Y2.9966 Z-0.07
G81 Y2.8975 Z-0.07
G81 Y2.7967 Z-0.07
G81 Y2.696 Z-0.07
G81 Y2.5969 Z-0.07
G81 X2.4214 Y2.4946 Z-0.07
G81 X2.4245 Y2.3955 Z-0.07
G81 X2.5733 Y2.3459 Z-0.07
G81 Y2.1972 Z-0.07
G81 X2.7747 Y2.1956 Z-0.07
G81 Y2.3459 Z-0.07
G81 X2.7731 Y2.4946 Z-0.07
G81 X2.7747 Y2.5953 Z-0.07
G81 Y2.6976 Z-0.07
G81 Y2.7967 Z-0.07
G81 X2.7731 Y2.8959 Z-0.07
G81 X2.9218 Y2.8975 Z-0.07
G81 X3.0721 Y2.7967 Z-0.07
G81 Y2.6976 Z-0.07
G81 Y2.5984 Z-0.07
G81 Y2.4962 Z-0.07
G81 X3.0225 Y2.2948 Z-0.07
G81 X2.9234 Z-0.07
G81 X2.5733 Y2.5442 Z-0.07
G81 Y2.7456 Z-0.07
G81 Y2.8959 Z-0.07
G81 X2.5717 Y3.0958 Z-0.07
G81 X2.7731 Y3.0973 Z-0.07
G81 X2.9234 Y3.198 Z-0.07
G81 X3.0721 Y3.3467 Z-0.07
G81 X3.074 Y3.547 Z-0.07
G81 X2.7741 Y3.577 Z-0.07
G81 Y3.7157 Z-0.07
G81 X2.1985 Y3.6463 Z-0.07
G81 X2.1236 Y3.6951 Z-0.07
G81 Y3.5957 Z-0.07
G81 X1.8724 Y3.5976 Z-0.07
G81 X1.8742 Y3.6988 Z-0.07
G81 X2.4229 Y1.0459 Z-0.07
G81 X2.5229 Y1.0473 Z-0.07
G81 X2.4229 Y0.8473 Z-0.07
G81 Y0.7445 Z-0.07
G81 X2.5229 Y0.6445 Z-0.07
G81 X1.9215 Y0.3459 Z-0.07
G80
( Engrave1 )
G0 Z0.125
( T3 : 0.0 )
T3 M6
M3 S1000
G0 X2.9035 Y1.1571
G1 F10.0 Z-0.004
G2 F25.0 X2.9036 Y1.1582 I0.0134 J-0.0006
G2 X2.9042 Y1.1623 I0.0768 J-0.0078
G2 X2.9054 Y1.1663 I0.0148 J-0.0024
G2 X2.9108 Y1.1725 I0.0127 J-0.0056
G2 X2.9153 Y1.1741 I0.0069 J-0.0122
G1 X2.9176 Y1.1745
G2 X2.9199 Y1.1748 I0.0047 J-0.0284
G2 X2.9246 Y1.1741 I-0.0053 J-0.0526
G2 X2.929 Y1.1725 I-0.0028 J-0.0144
G2 X2.9344 Y1.1663 I-0.0071 J-0.0117
G2 X2.9357 Y1.1617 I-0.0144 J-0.0065
G1 X2.936 Y1.1594
G1 X2.9362 Y1.1571
G1 Y1.1333
G1 X2.9035
G1 Y1.1571
G1 X2.9362
G0 Z0.125
G0 X2.9445 Y1.1547
G1 F10.0 Z-0.004
G1 F25.0 X2.9841 Y1.1749
G1 Y1.1861
G1 X2.895 Y1.1579
G1 Y1.1238
G1 X2.9841
G1 Y1.1333
G1 X2.9445
G1 Y1.1547
G0 Z0.125
G0 X2.9436 Y1.1649
G1 F10.0 Z-0.004
G1 F25.0 X2.9841 Y1.1861
G1 X2.9436 Y1.1649
G3 X2.9432 Y1.1662 I-0.0149 J-0.004
G3 X2.9393 Y1.175 I-0.0314 J-0.0087
G3 X2.9312 Y1.1818 I-0.0173 J-0.0124
G3 X2.9198 Y1.1843 I-0.0111 J-0.0236
G3 X2.9065 Y1.1809 I-0.0005 J-0.0255
G3 X2.898 Y1.1716 I0.0114 J-0.019
G3 X2.8959 Y1.1649 I0.0243 J-0.0112
G1 X2.8957 Y1.1632
G1 X2.895 Y1.1579
G0 Z0.125
G0 Y1.2058
G1 F10.0 Z-0.004
G1 F25.0 X2.9841
G1 Y1.2363
G3 X2.9837 Y1.2407 I-0.0956 J-0.0044
G3 X2.9835 Y1.2429 I-0.0143 J-0.0006
G3 X2.9831 Y1.245 I-0.0403 J-0.0061
G3 X2.9803 Y1.2526 I-0.0287 J-0.0062
G3 X2.9758 Y1.2588 I-0.0226 J-0.0119
G3 X2.9648 Y1.2652 I-0.0193 J-0.0207
G3 X2.9516 Y1.2673 I-0.0151 J-0.0509
G3 X2.9484 Y1.2675 I-0.003 J-0.0318
G3 X2.9385 I-0.0061 J-0.1565
G1 X2.9322 Y1.2676
G1 X2.9291 Y1.2675
G1 X2.926 Y1.2673
G3 X2.9138 Y1.2652 I0.0018 J-0.0457
G3 X2.9033 Y1.2588 I0.0085 J-0.0259
G3 X2.8988 Y1.2526 I0.0184 J-0.0182
G3 X2.896 Y1.2451 I0.0283 J-0.0147
G3 X2.8956 Y1.2429 I0.023 J-0.0052
G3 X2.895 Y1.2363 I0.0582 J-0.0083
G1 Y1.2058
G0 Z0.125
G0 X2.9035 Y1.2153
G1 F10.0 Z-0.004
G1 F25.0 Y1.2347
G2 X2.9036 Y1.2363 I0.0178 J0.0
G2 X2.9042 Y1.2412 I0.0397 J-0.002
G2 X2.9062 Y1.2471 I0.0234 J-0.005
G2 X2.91 Y1.2522 I0.0172 J-0.0089
G2 X2.9178 Y1.2564 I0.0135 J-0.0154
G2 X2.9277 Y1.2579 I0.0107 J-0.0377
G2 X2.9385 Y1.258 I0.0092 J-0.2498
G2 X2.9499 Y1.2579 I0.0033 J-0.1612
G2 X2.9607 Y1.2564 I-0.0005 J-0.0446
G2 X2.969 Y1.2522 I-0.0049 J-0.0199
G2 X2.9728 Y1.2471 I-0.0122 J-0.0131
G2 X2.9749 Y1.2412 I-0.0202 J-0.0104
G2 X2.9755 Y1.2347 I-0.0373 J-0.0069
G1 Y1.2153
G1 X2.9035
G0 Z0.125
G0 Y1.2899
G1 F10.0 Z-0.004
G1 F25.0 X2.984
G1 Y1.2994
G1 X2.895
G1 Y1.2899
G1 X2.9035
G0 Z0.125
G0 X3.0098 Y1.2688
G1 F10.0 Z-0.004
G3 F25.0 X3.0088 Y1.2586 I0.0514 J-0.0102
G3 X3.0103 Y1.2461 I0.0463 J-0.0007
G3 X3.0147 Y1.2355 I0.0447 J0.0123
G3 X3.0218 Y1.2265 I0.0349 J0.02
G3 X3.0349 Y1.2181 I0.027 J0.0278
G3 X3.0426 Y1.2161 I0.0158 J0.044
G1 X3.0465 Y1.2155
G3 X3.0504 Y1.2151 I0.0051 J0.0353
G3 X3.0598 Y1.2148 I0.0095 J0.1333
G3 X3.0621 I0.0014 J0.0325
G3 X3.0656 I0.0018 J0.0518
G2 X3.0691 I0.0018 J-0.0909
G1 X3.0785
G3 X3.0879 Y1.2151 I-0.0033 J0.2202
G1 X3.0918 Y1.2155
G3 X3.1034 Y1.2181 I-0.0043 J0.0464
G3 X3.1165 Y1.2265 I-0.0137 J0.0358
G3 X3.1236 Y1.2355 I-0.0306 J0.0312
G3 X3.128 Y1.2461 I-0.0383 J0.0221
G3 X3.1295 Y1.2586 I-0.0511 J0.0125
G3 X3.128 Y1.2711 I-0.0456 J0.0008
G3 X3.1236 Y1.2816 I-0.0399 J-0.0105
G3 X3.1165 Y1.2906 I-0.0352 J-0.0204
G3 X3.1034 Y1.299 I-0.0272 J-0.0279
G3 X3.0958 Y1.3011 I-0.0162 J-0.0447
G1 X3.0918 Y1.3017
G3 X3.0879 Y1.3021 I-0.0054 J-0.0357
G3 X3.0785 Y1.3024 I-0.0102 J-0.1329
G3 X3.0762 Y1.3025 I-0.0015 J-0.0331
G3 X3.0727 I-0.0018 J-0.054
G3 X3.0691 I-0.0013 J-0.0988
G1 X3.0598 Y1.3024
G3 X3.0504 Y1.3021 I0.0043 J-0.2163
G1 X3.0465 Y1.3017
G3 X3.0435 Y1.3013 I0.0015 J-0.0217
G3 X3.0349 Y1.299 I0.0087 J-0.0513
G3 X3.0218 Y1.2906 I0.0144 J-0.0367
G3 X3.0147 Y1.2816 I0.03 J-0.0309
G3 X3.0103 Y1.2711 I0.0339 J-0.0204
G3 X3.0098 Y1.2688 I0.0509 J-0.0125
G0 Z0.125
G0 X3.0301 Y1.2638
G1 F10.0 Z-0.004
G2 F25.0 X3.0303 Y1.2645 I0.0201 J-0.0049
G2 X3.0325 Y1.2695 I0.0166 J-0.0043
G2 X3.0358 Y1.2735 I0.0155 J-0.0098
G2 X3.0416 Y1.277 I0.0134 J-0.0155
G2 X3.0515 Y1.2788 I0.0109 J-0.0315
G2 X3.0603 Y1.2792 I0.0114 J-0.1546
G1 X3.0691 Y1.2793
G1 X3.0736 Y1.2792
G2 X3.0868 Y1.2788 I-0.0007 J-0.2062
G1 X3.0893 Y1.2786
G2 X3.0967 Y1.277 I-0.0023 J-0.0285
G2 X3.1025 Y1.2735 I-0.0064 J-0.017
G2 X3.1058 Y1.2695 I-0.0122 J-0.0138
G2 X3.108 Y1.2645 I-0.018 J-0.0109
G2 X3.1088 Y1.2586 I-0.0226 J-0.006
G2 X3.108 Y1.2527 I-0.0212 J-0.0002
G2 X3.1058 Y1.2476 I-0.0173 J0.0045
G2 X3.1025 Y1.2436 I-0.0174 J0.0113
G2 X3.0967 Y1.2402 I-0.0122 J0.0138
G2 X3.0918 Y1.2389 I-0.0075 J0.0196
G1 X3.0893 Y1.2386
G2 X3.0868 Y1.2384 I-0.0057 J0.0563
G2 X3.078 Y1.238 I-0.0145 J0.2323
G1 X3.0691
G1 X3.0647
G2 X3.0515 Y1.2384 I0.0056 J0.3584
G1 X3.049 Y1.2386
G2 X3.0416 Y1.2402 I0.0021 J0.0286
G2 X3.0358 Y1.2436 I0.007 J0.0183
G2 X3.0325 Y1.2476 I0.0124 J0.0139
G2 X3.0303 Y1.2527 I0.0187 J0.0111
G2 X3.0295 Y1.2586 I0.0228 J0.0061
G2 X3.0301 Y1.2638 I0.0207 J0.0002
G0 Z0.125
G0 Y1.1911
G1 F10.0 Z-0.004
G1 F25.0 X3.0098
G1 Y1.168
G1 X3.0583
G1 Y1.1278
G1 X3.0098
G1 Y1.1046
G1 X3.1285
G1 Y1.1278
G1 X3.0788
G1 Y1.168
G1 X3.1285
G1 Y1.1911
G1 X3.0301
G0 Z0.125
G0 X2.9841 Y1.1094
G1 F10.0 Z-0.004
G1 F25.0 X2.895 Y1.0768
G1 Y1.0688
G1 X2.9841 Y1.036
G1 Y1.0461
G1 X2.9639 Y1.0533
G1 Y1.0922
G1 X2.9841 Y1.0993
G1 Y1.1094
G0 Z0.125
G0 X2.9557 Y1.0894
G1 F10.0 Z-0.004
G1 F25.0 Y1.0561
G1 X2.9087 Y1.0729
G1 X2.9557 Y1.0894
G0 Z0.125
G0 X3.0133 Y1.0618
G1 F10.0 Z-0.004
G3 F25.0 X3.013 Y1.0612 I0.0343 J-0.0164
G3 X3.0088 Y1.0409 I0.0438 J-0.0197
G3 X3.0103 Y1.0287 I0.0518 J0.0002
G3 X3.0147 Y1.0181 I0.0425 J0.0113
G3 X3.0218 Y1.009 I0.0371 J0.0215
G3 X3.0349 Y1.0006 I0.0272 J0.0281
G3 X3.0425 Y0.9985 I0.0153 J0.0422
G1 X3.0465 Y0.998
G3 X3.0504 Y0.9976 I0.0051 J0.0355
G3 X3.0598 Y0.9973 I0.01 J0.1461
G3 X3.0621 I0.0014 J0.0329
G3 X3.0656 I0.0018 J0.0524
G2 X3.0691 I0.0019 J-0.0918
G1 X3.0785
G3 X3.0879 Y0.9976 I-0.0019 J0.1835
G1 X3.0918 Y0.998
G3 X3.1034 Y1.0006 I-0.0045 J0.0474
G3 X3.1165 Y1.009 I-0.0133 J0.0351
G3 X3.1236 Y1.0181 I-0.0285 J0.0294
G3 X3.128 Y1.0287 I-0.0375 J0.0217
G3 X3.1295 Y1.0409 I-0.0486 J0.0122
G3 X3.1253 Y1.0611 I-0.0475 J0.0006
G3 X3.1127 Y1.0763 I-0.0351 J-0.0162
G3 X3.1027 Y1.0814 I-0.0245 J-0.0363
G3 X3.1001 Y1.0823 I-0.0118 J-0.0299
G3 X3.096 Y1.0835 I-0.0435 J-0.1358
G1 X3.092 Y1.0846
G1 Y1.0611
G2 X3.1006 Y1.0575 I-0.0094 J-0.0343
G2 X3.1066 Y1.051 I-0.0096 J-0.0148
G2 X3.1088 Y1.0411 I-0.0188 J-0.0095
G2 X3.1081 Y1.0352 I-0.0223 J-0.0002
G2 X3.106 Y1.0302 I-0.0176 J0.0045
G2 X3.1027 Y1.0263 I-0.0145 J0.0089
G2 X3.0968 Y1.0228 I-0.0125 J0.0141
G2 X3.0869 Y1.021 I-0.0111 J0.0331
G2 X3.0691 Y1.0205 I-0.0167 J0.2729
G2 X3.0514 Y1.021 I-0.0025 J0.2225
G2 X3.0415 Y1.0228 I0.0012 J0.0349
G2 X3.0356 Y1.0263 I0.0069 J0.0181
G2 X3.0323 Y1.0302 I0.012 J0.0134
G2 X3.0302 Y1.0352 I0.0167 J0.01
G2 X3.0295 Y1.0411 I0.023 J0.0059
G2 X3.0317 Y1.051 I0.0209 J0.0004
G2 X3.0377 Y1.0575 I0.0161 J-0.0088
G2 X3.0463 Y1.0611 I0.0177 J-0.03
G1 Y1.0846
G3 X3.0436 Y1.0839 I0.0061 J-0.0272
G3 X3.0389 Y1.0825 I0.038 J-0.138
G3 X3.032 Y1.0799 I0.0277 J-0.0856
G3 X3.0256 Y1.0764 I0.0168 J-0.0379
G3 X3.0133 Y1.0618 I0.0221 J-0.031
G0 Z0.125
G0 X2.9841 Y1.0217
G1 F10.0 Z-0.004
G1 F25.0 X2.895
G1 Y1.0121
G1 X2.9662
G1 X2.895 Y0.9649
G1 Y0.9559
G1 X2.9841
G1 Y0.9654
G1 X2.9127
G1 X2.9841 Y1.0126
G1 Y1.0217
G0 Z0.125
G0 X3.0098 Y0.9786
G1 F10.0 Z-0.004
G1 F25.0 Y0.9005
G1 X3.1285
G1 Y0.9786
G1 X3.1078
G1 Y0.9236
G1 X3.079
G1 Y0.9705
G1 X3.0583
G1 Y0.9236
G1 X3.0305
G1 Y0.9786
G1 X3.0098
G0 Z0.125
G0 X2.9841 Y0.9361
G1 F10.0 Z-0.004
G1 F25.0 X2.9436 Y0.915
G1 X2.9841 Y0.9361
G1 X2.895 Y0.908
G1 Y0.8739
G1 X2.9841
G1 Y0.8834
G1 X2.9445
G1 Y0.9048
G1 X2.9841 Y0.925
G1 Y0.9361
G0 Z0.125
G0 X2.9436 Y0.915
G1 F10.0 Z-0.004
G3 F25.0 X2.9432 Y0.9163 I-0.0149 J-0.004
G3 X2.9393 Y0.9252 I-0.0312 J-0.0086
G3 X2.9312 Y0.9319 I-0.0173 J-0.0125
G3 X2.9198 Y0.9344 I-0.0111 J-0.0236
G3 X2.9065 Y0.931 I-0.0005 J-0.0255
G3 X2.898 Y0.9217 I0.0114 J-0.019
G3 X2.8959 Y0.915 I0.0243 J-0.0112
G1 X2.8957 Y0.9133
G1 X2.895 Y0.908
G0 Z0.125
G0 X2.9035 Y0.9072
G1 F10.0 Z-0.004
G2 F25.0 X2.9036 Y0.9083 I0.0134 J-0.0006
G2 X2.9042 Y0.9124 I0.0768 J-0.0078
G2 X2.9054 Y0.9164 I0.0148 J-0.0024
G2 X2.9108 Y0.9226 I0.0127 J-0.0056
G2 X2.9153 Y0.9242 I0.0069 J-0.0122
G1 X2.9176 Y0.9246
G2 X2.9199 Y0.9249 I0.0047 J-0.0284
G2 X2.9246 Y0.9242 I-0.0053 J-0.0526
G2 X2.929 Y0.9226 I-0.0028 J-0.0144
G2 X2.9344 Y0.9164 I-0.0071 J-0.0117
G2 X2.9357 Y0.9118 I-0.0144 J-0.0065
G1 X2.936 Y0.9095
G1 X2.9362 Y0.9072
G1 Y0.8834
G1 X2.9035
G1 Y0.9072
G1 X2.9362
G0 Z0.125
G0 Y0.8474
G1 F10.0 Z-0.004
G1 F25.0 X2.9349
G1 Y0.8084
G1 X2.9035
G1 Y0.8541
G1 X2.895
G1 Y0.7989
G1 X2.9841
G1 Y0.8541
G1 X2.9755
G1 Y0.8084
G1 X2.9434
G1 Y0.8474
G1 X2.9362
G0 Z0.125
G0 X2.9528 Y0.7756
G1 F10.0 Z-0.004
G3 F25.0 X2.9499 Y0.7747 I0.0044 J-0.0189
G3 X2.9428 Y0.7696 I0.007 J-0.0173
G3 X2.9383 Y0.762 I0.0276 J-0.0216
G3 X2.9374 Y0.7638 I-0.0119 J-0.005
G1 X2.9359 Y0.7664
G3 X2.9341 Y0.7688 I-0.0107 J-0.0062
G3 X2.9274 Y0.7734 I-0.0137 J-0.0126
G3 X2.9188 Y0.7752 I-0.0087 J-0.0211
G3 X2.906 Y0.7718 I-0.0006 J-0.0235
G3 X2.8979 Y0.7626 I0.0117 J-0.0186
G3 X2.8959 Y0.7559 I0.0229 J-0.0105
G1 X2.8956 Y0.7541
G1 X2.895 Y0.7489
G1 Y0.7154
G1 X2.9841
G1 Y0.75
G3 X2.9839 Y0.7518 I-0.0195 J-0.0008
G3 X2.9831 Y0.758 I-0.0561 J-0.0042
G3 X2.9812 Y0.7639 I-0.0257 J-0.0047
G3 X2.973 Y0.7732 I-0.0191 J-0.0088
G3 X2.9664 Y0.7755 I-0.011 J-0.0203
G1 X2.9629 Y0.7761
G3 X2.9594 Y0.7765 I-0.0062 J-0.0372
G3 X2.9582 Y0.7764 I0.001 J-0.0156
G3 X2.954 Y0.7758 I0.0044 J-0.0473
G3 X2.9528 Y0.7756 I0.0032 J-0.0191
G0 Z0.125
G0 X2.9547 Y0.7663
G1 F10.0 Z-0.004
G2 F25.0 X2.9592 Y0.767 I0.0098 J-0.0499
G2 X2.9636 Y0.7663 I-0.011 J-0.0868
G2 X2.9679 Y0.7648 I-0.0026 J-0.0139
G2 X2.9735 Y0.7587 I-0.007 J-0.0121
G2 X2.9749 Y0.754 I-0.0172 J-0.0078
G2 X2.9755 Y0.7492 I-0.0502 J-0.0086
G1 Y0.7249
G1 X2.9429
G1 Y0.7492
G2 X2.9435 Y0.754 I0.1 J-0.0094
G2 X2.9449 Y0.7587 I0.0182 J-0.003
G2 X2.9505 Y0.7648 I0.0126 J-0.0058
G2 X2.9547 Y0.7663 I0.0079 J-0.0155
G0 Z0.125
G0 X2.9327 Y0.7572
G1 F10.0 Z-0.004
G2 F25.0 Y0.7571 I-0.0127 J-0.0053
G2 X2.9339 Y0.7527 I-0.0176 J-0.0071
G1 X2.9342 Y0.7504
G1 X2.9344 Y0.7481
G1 Y0.7249
G1 X2.9035
G1 Y0.7481
G2 X2.9037 Y0.7504 I0.0151 J-0.0001
G2 X2.9052 Y0.7571 I0.0233 J-0.0016
G2 X2.9102 Y0.7633 I0.0126 J-0.005
G2 X2.9144 Y0.7649 I0.0067 J-0.0111
G2 X2.9189 Y0.7656 I0.0078 J-0.0349
G2 X2.9212 Y0.7653 I-0.0085 J-0.0727
G2 X2.9277 Y0.7633 I-0.0019 J-0.0175
G2 X2.9327 Y0.7572 I-0.0076 J-0.0114
G0 Z0.125
G0 X3.0093 Y0.7674
G1 F10.0 Z-0.004
G3 F25.0 X3.0103 Y0.7618 I0.0511 J0.0068
G3 X3.0147 Y0.7511 I0.0428 J0.0115
G3 X3.0218 Y0.742 I0.0367 J0.0212
G3 X3.0349 Y0.7337 I0.0264 J0.0268
G3 X3.0426 Y0.7316 I0.0152 J0.0417
G1 X3.0465 Y0.7311
G3 X3.0504 Y0.7307 I0.0051 J0.0356
G3 X3.0598 Y0.7304 I0.0103 J0.1559
G3 X3.0621 Y0.7303 I0.0014 J0.0332
G3 X3.0656 I0.0018 J0.053
G2 X3.0691 I0.0019 J-0.093
G1 X3.0785 Y0.7304
G3 X3.0879 Y0.7307 I-0.0014 J0.1669
G1 X3.0918 Y0.7311
G3 X3.1034 Y0.7337 I-0.0047 J0.0481
G3 X3.1165 Y0.742 I-0.0141 J0.0364
G3 X3.1236 Y0.7511 I-0.0288 J0.0296
G3 X3.128 Y0.7618 I-0.0372 J0.0216
G3 X3.1295 Y0.774 I-0.0435 J0.0116
G3 X3.1253 Y0.7942 I-0.0473 J0.0007
G3 X3.1127 Y0.8094 I-0.0351 J-0.0162
G3 X3.1027 Y0.8144 I-0.0244 J-0.0362
G3 X3.1001 Y0.8153 I-0.0117 J-0.0298
G3 X3.096 Y0.8165 I-0.0423 J-0.1319
G1 X3.092 Y0.8177
G1 Y0.7942
G2 X3.1006 Y0.7905 I-0.0094 J-0.0343
G2 X3.1066 Y0.784 I-0.0096 J-0.0148
G2 X3.1088 Y0.7742 I-0.0188 J-0.0095
G2 X3.1081 Y0.7683 I-0.0223 J-0.0002
G2 X3.106 Y0.7633 I-0.0177 J0.0046
G2 X3.1027 Y0.7593 I-0.0172 J0.0112
G2 X3.0968 Y0.7558 I-0.0126 J0.0143
G2 X3.0869 Y0.754 I-0.0111 J0.0326
G1 X3.0824 Y0.7538
G2 X3.0691 Y0.7535 I-0.0105 J0.2059
G2 X3.0514 Y0.754 I-0.0031 J0.198
G2 X3.0415 Y0.7558 I0.0013 J0.0356
G2 X3.0356 Y0.7593 I0.0068 J0.0179
G2 X3.0323 Y0.7633 I0.0121 J0.0135
G2 X3.0302 Y0.7683 I0.0167 J0.01
G2 X3.0295 Y0.7742 I0.023 J0.0059
G2 X3.0317 Y0.784 I0.0209 J0.0004
G2 X3.0377 Y0.7905 I0.0161 J-0.0088
G2 X3.0463 Y0.7942 I0.0177 J-0.03
G1 Y0.8177
G3 X3.0436 Y0.8169 I0.0061 J-0.0272
G3 X3.0389 Y0.8155 I0.0388 J-0.1408
G3 X3.032 Y0.813 I0.028 J-0.0865
G3 X3.0256 Y0.8094 I0.0168 J-0.038
G3 X3.013 Y0.7943 I0.022 J-0.031
G3 X3.0088 Y0.774 I0.0438 J-0.0197
G3 X3.0093 Y0.7674 I0.0515 J0.0002
G0 Z0.125
G0 X3.0098 Y0.7217
G1 F10.0 Z-0.004
G1 F25.0 Y0.6975
G1 X3.0871 Y0.6737
G1 X3.0098 Y0.6498
G1 Y0.6259
G1 X3.1285 Y0.665
G1 Y0.6824
G1 X3.0098 Y0.7217
G0 Z0.125
G0 X2.9841 Y0.5961
G1 F10.0 Z-0.004
G1 F25.0 X2.9035
G1 Y0.6219
G1 X2.895
G1 Y0.5609
G1 X2.9035
G1 Y0.5866
G1 X2.9841
G1 Y0.5961
G0 Z0.125
G0 X3.0223 Y0.5462
G1 F10.0 Z-0.004
G3 F25.0 X3.0132 Y0.5355 I0.0198 J-0.0258
G3 X3.0088 Y0.5167 I0.0363 J-0.0184
G3 X3.0129 Y0.4985 I0.0409 J-0.0004
G3 X3.0245 Y0.4856 I0.0283 J0.0137
G3 X3.0333 Y0.4821 I0.0165 J0.0291
G3 X3.0426 Y0.4804 I0.0363 J0.1681
G1 Y0.5021
G2 X3.0417 Y0.5022 I0.0011 J0.0096
G2 X3.0349 Y0.5043 I0.0027 J0.0209
G2 X3.03 Y0.5094 I0.0066 J0.0112
G2 X3.0283 Y0.5167 I0.0137 J0.0071
G2 X3.03 Y0.524 I0.015 J0.0003
G2 X3.0351 Y0.5292 I0.0119 J-0.0065
G2 X3.0435 Y0.5312 I0.008 J-0.015
G2 X3.051 Y0.5297 I0.0006 J-0.0162
G2 X3.0563 Y0.5248 I-0.0054 J-0.0111
G2 X3.0578 Y0.5206 I-0.0124 J-0.0066
G1 X3.0581 Y0.5184
G2 X3.0583 Y0.5162 I-0.0339 J-0.0045
G1 Y0.5131
G1 X3.0772
G1 Y0.5162
G2 X3.0778 Y0.5209 I0.0721 J-0.0068
G2 X3.0792 Y0.5253 I0.0143 J-0.0022
G2 X3.0849 Y0.531 I0.0125 J-0.0069
G2 X3.0935 Y0.5329 I0.0081 J-0.0157
G2 X3.1025 Y0.5308 I0.0006 J-0.0182
G2 X3.1081 Y0.5252 I-0.0071 J-0.0126
G2 X3.11 Y0.5169 I-0.0155 J-0.0079
G2 X3.1083 Y0.509 I-0.0182 J-0.0003
G2 X3.1032 Y0.5032 I-0.0127 J0.006
G2 X3.099 Y0.5015 I-0.0077 J0.0136
G1 X3.0967 Y0.5011
G2 X3.0945 Y0.5007 I-0.0052 J0.0272
G1 Y0.4791
G3 X3.0997 Y0.4798 I-0.0119 J0.1
G3 X3.1074 Y0.4815 I-0.0082 J0.0555
G3 X3.1146 Y0.4847 I-0.0076 J0.0269
G3 X3.1213 Y0.4908 I-0.0158 J0.0239
G3 X3.1259 Y0.4986 I-0.027 J0.0216
G3 X3.1295 Y0.5169 I-0.0415 J0.0176
G3 X3.1256 Y0.5357 I-0.0443 J0.0006
G3 X3.1138 Y0.5493 I-0.0289 J-0.0131
G3 X3.1043 Y0.553 I-0.0162 J-0.0282
G3 X3.0992 Y0.5539 I-0.0251 J-0.1222
G3 X3.0941 Y0.5546 I-0.0154 J-0.0936
G3 X3.0926 Y0.5545 I0.001 J-0.0218
G3 X3.0912 Y0.5543 I0.0004 J-0.0123
G3 X3.0818 Y0.5525 I0.0021 J-0.0359
G3 X3.073 Y0.547 I0.0083 J-0.0232
G3 X3.0672 Y0.5392 I0.0332 J-0.0309
G3 X3.0647 Y0.5429 I-0.0314 J-0.0183
G3 X3.0618 Y0.5463 I-0.0197 J-0.0139
G3 X3.0539 Y0.5511 I-0.016 J-0.0173
G3 X3.0428 Y0.5529 I-0.0104 J-0.0292
G3 X3.0251 Y0.5482 I-0.0002 J-0.0348
G3 X3.0223 Y0.5462 I0.0169 J-0.0278
G0 Z0.125
G0 X2.9841 Y0.5276
G1 F10.0 Z-0.004
G1 F25.0 X2.9035
G1 Y0.5534
G1 X2.895
G1 Y0.4924
G1 X2.9035
G1 Y0.5181
G1 X2.9841
G1 Y0.5276
G0 Z0.125
G0 X2.9663 Y0.4793
G1 F10.0 Z-0.004
G3 F25.0 X2.9611 Y0.4807 I-0.01 J-0.0272
G3 X2.9554 Y0.4813 I-0.0104 J-0.0651
G1 X2.9514 Y0.4815
G3 X2.9455 Y0.4816 I-0.0047 J-0.0919
G3 X2.9425 I-0.0015 J-0.0346
G3 X2.9395 I-0.0011 J-0.0616
G1 X2.9356
G3 X2.9237 Y0.4813 I-0.0001 J-0.2124
G3 X2.9124 Y0.4791 I0.0014 J-0.0378
G3 X2.9035 Y0.4732 I0.0106 J-0.0255
G3 X2.8985 Y0.4667 I0.0197 J-0.0204
G3 X2.8954 Y0.459 I0.0282 J-0.016
G3 X2.8943 Y0.4505 I0.0367 J-0.0089
G3 X2.8954 Y0.442 I0.0307 J-0.0005
G3 X2.8985 Y0.4343 I0.0295 J0.0076
G3 X2.9035 Y0.4277 I0.0289 J0.017
G3 X2.9124 Y0.4218 I0.0186 J0.0184
G3 X2.9237 Y0.4197 I0.0127 J0.0354
G1 X2.9276 Y0.4195
G3 X2.9336 Y0.4194 I0.0048 J0.1036
G3 X2.9366 I0.0015 J0.0344
G2 X2.9395 I0.0016 J-0.059
G1 X2.9435
G3 X2.9554 Y0.4197 I0.0002 J0.2196
G3 X2.9667 Y0.4218 I-0.0014 J0.0376
G3 X2.9755 Y0.4277 I-0.0107 J0.0256
G3 X2.9806 Y0.4343 I-0.0196 J0.0203
G3 X2.9837 Y0.442 I-0.0283 J0.016
G3 X2.9848 Y0.4505 I-0.0366 J0.0089
G3 X2.9837 Y0.459 I-0.0307 J0.0005
G3 X2.9806 Y0.4667 I-0.0296 J-0.0076
G3 X2.9755 Y0.4732 I-0.0289 J-0.0169
G3 X2.9667 Y0.4791 I-0.0185 J-0.0182
G3 X2.9663 Y0.4793 I-0.0104 J-0.0271
G0 Z0.125
G0 X2.9631 Y0.4702
G1 F10.0 Z-0.004
G2 F25.0 X2.9636 Y0.47 I-0.0084 J-0.0237
G2 X2.9699 Y0.4659 I-0.0076 J-0.0185
G2 X2.9733 Y0.4615 I-0.0142 J-0.0146
G2 X2.9755 Y0.4562 I-0.0207 J-0.0117
G2 X2.9763 Y0.4505 I-0.0205 J-0.0056
G2 X2.9755 Y0.4448 I-0.0229 J0.0001
G2 X2.9733 Y0.4395 I-0.0195 J0.005
G2 X2.9699 Y0.4351 I-0.018 J0.0105
G2 X2.9636 Y0.431 I-0.0133 J0.0135
G2 X2.9591 Y0.4298 I-0.0079 J0.02
G1 X2.9568 Y0.4294
G2 X2.9544 Y0.4292 I-0.0038 J0.0298
G2 X2.9395 Y0.4289 I-0.0126 J0.2081
G2 X2.9247 Y0.4292 I-0.0026 J0.1931
G1 X2.9223 Y0.4294
G2 X2.9155 Y0.431 I0.0021 J0.0252
G2 X2.9092 Y0.4351 I0.0076 J0.0184
G2 X2.9057 Y0.4395 I0.0142 J0.0146
G2 X2.9036 Y0.4448 I0.0206 J0.0117
G2 X2.9028 Y0.4505 I0.0205 J0.0056
G2 X2.9036 Y0.4562 I0.0229 J-0.0001
G2 X2.9057 Y0.4615 I0.0195 J-0.005
G2 X2.9092 Y0.4659 I0.0179 J-0.0104
G2 X2.9155 Y0.47 I0.0133 J-0.0135
G2 X2.92 Y0.4712 I0.0079 J-0.02
G1 X2.9223 Y0.4715
G2 X2.9247 Y0.4718 I0.0038 J-0.0296
G2 X2.9395 Y0.4721 I0.0129 J-0.2201
G2 X2.9544 Y0.4718 I0.0025 J-0.1978
G1 X2.9568 Y0.4715
G2 X2.9631 Y0.4702 I-0.0021 J-0.0251
G0 Z0.125
G0 X3.0145 Y0.4412
G1 F10.0 Z-0.004
G3 F25.0 X3.0142 Y0.4407 I0.0342 J-0.0193
G3 X3.0101 Y0.4295 I0.037 J-0.0201
G3 X3.0088 Y0.4176 I0.0494 J-0.0113
G3 X3.0103 Y0.4052 I0.0477 J-0.0004
G3 X3.0147 Y0.3946 I0.0392 J0.0101
G3 X3.0218 Y0.3856 I0.0342 J0.0195
G3 X3.0349 Y0.3772 I0.0271 J0.0279
G3 X3.0426 Y0.3752 I0.0158 J0.0438
G1 X3.0465 Y0.3746
G3 X3.0504 Y0.3743 I0.0051 J0.0352
G3 X3.0598 Y0.3739 I0.0095 J0.134
G3 X3.0621 I0.0014 J0.0327
G3 X3.0656 I0.0018 J0.0525
G2 X3.0691 I0.0019 J-0.0964
G1 X3.0785
G3 X3.0879 Y0.3743 I-0.0015 J0.1694
G1 X3.0918 Y0.3746
G3 X3.1034 Y0.3772 I-0.0046 J0.048
G3 X3.1165 Y0.3856 I-0.0141 J0.0365
G3 X3.1236 Y0.3947 I-0.0287 J0.0296
G3 X3.128 Y0.4053 I-0.0376 J0.0218
G3 X3.1295 Y0.4176 I-0.0489 J0.0123
G3 X3.1282 Y0.4298 I-0.056 J0.0002
G3 X3.1239 Y0.441 I-0.042 J-0.0097
G3 X3.116 Y0.4511 I-0.0359 J-0.0199
G3 X3.1066 Y0.4577 I-0.0264 J-0.0275
G3 X3.0949 Y0.4613 I-0.0186 J-0.0396
G3 X3.093 Y0.4616 I-0.0031 J-0.0144
G3 X3.0864 Y0.4622 I-0.0116 J-0.0939
G1 X3.0798 Y0.4624
G1 X3.0625
G1 Y0.4176
G1 X3.0818
G1 Y0.4394
G1 X3.0863
G2 X3.0922 Y0.4389 I-0.0011 J-0.0448
G2 X3.0975 Y0.4372 I-0.0031 J-0.0187
G2 X3.1021 Y0.4341 I-0.0082 J-0.0175
G2 X3.1057 Y0.4296 I-0.0122 J-0.0136
G2 X3.108 Y0.4241 I-0.0181 J-0.0107
G2 X3.1088 Y0.4176 I-0.0284 J-0.0068
G2 X3.1081 Y0.4117 I-0.0206 J-0.0004
G2 X3.106 Y0.4067 I-0.0171 J0.0043
G2 X3.1027 Y0.4027 I-0.0166 J0.0107
G2 X3.0968 Y0.3993 I-0.0125 J0.0144
G2 X3.0869 Y0.3975 I-0.0108 J0.0329
G2 X3.0691 Y0.3971 I-0.0152 J0.2392
G1 X3.0647
G2 X3.0581 Y0.3972 I0.0133 J0.8436
G1 X3.0515 Y0.3975
G2 X3.0416 Y0.3993 I0.0009 J0.0344
G2 X3.0358 Y0.4027 I0.0072 J0.0186
G2 X3.0325 Y0.4067 I0.0106 J0.0124
G2 X3.0303 Y0.4117 I0.0149 J0.0095
G2 X3.0295 Y0.4176 I0.0253 J0.0064
G2 X3.0315 Y0.4278 I0.0235 J0.0007
G2 X3.0374 Y0.4348 I0.0166 J-0.0079
G2 X3.0419 Y0.4372 I0.015 J-0.023
G2 X3.0468 Y0.4389 I0.0181 J-0.0446
G1 Y0.4622
G1 X3.042 Y0.4609
G1 X3.0384 Y0.4599
G3 X3.0281 Y0.4554 I0.013 J-0.0439
G3 X3.0145 Y0.4412 I0.0207 J-0.0334
G0 Z0.125
G0 X2.9746 Y0.3944
G1 F10.0 Z-0.004
G3 F25.0 X2.9726 Y0.396 I-0.0182 J-0.0213
G3 X2.9657 Y0.3994 I-0.0163 J-0.024
G1 X2.9638 Y0.4001
G1 X2.9583 Y0.4017
G1 Y0.3922
G2 X2.9595 Y0.3918 I-0.004 J-0.0145
G2 X2.9638 Y0.3903 I-0.0233 J-0.0702
G2 X2.9678 Y0.3881 I-0.01 J-0.0233
G2 X2.974 Y0.3808 I-0.0111 J-0.0159
G2 X2.9763 Y0.3709 I-0.0201 J-0.0098
G2 X2.9756 Y0.3651 I-0.0233 J0.0001
G2 X2.9734 Y0.3599 I-0.0205 J0.0053
G2 X2.9701 Y0.3555 I-0.017 J0.0096
G2 X2.9637 Y0.3514 I-0.0136 J0.014
G2 X2.9544 Y0.3496 I-0.0105 J0.0302
G1 X2.9507 Y0.3494
G2 X2.9395 Y0.3492 I-0.009 J0.2378
G1 X2.9358 Y0.3493
G2 X2.9302 I-0.0014 J0.0896
G2 X2.9246 Y0.3496 I0.0045 J0.1472
G2 X2.9154 Y0.3514 I0.001 J0.0304
G2 X2.909 Y0.3555 I0.0072 J0.018
G2 X2.9056 Y0.3599 I0.0141 J0.0144
G2 X2.9035 Y0.3651 I0.0189 J0.0107
G2 X2.9028 Y0.3709 I0.0229 J0.0058
G2 X2.905 Y0.3808 I0.0217 J0.0003
G2 X2.9113 Y0.3879 I0.0171 J-0.0085
G2 X2.9159 Y0.3903 I0.0144 J-0.0223
G1 X2.9183 Y0.3912
G1 X2.9208 Y0.392
G1 Y0.4017
G3 X2.9134 Y0.3994 I0.0177 J-0.069
G3 X2.9065 Y0.396 I0.0093 J-0.0274
G3 X2.8974 Y0.3853 I0.0156 J-0.0224
G3 X2.8943 Y0.3709 I0.0291 J-0.0139
G3 X2.8954 Y0.3624 I0.0319 J-0.0003
G3 X2.8985 Y0.3547 I0.0314 J0.0083
G3 X2.9035 Y0.3481 I0.0282 J0.0163
G3 X2.9124 Y0.3422 I0.0187 J0.0185
G3 X2.9237 Y0.34 I0.0126 J0.0352
G3 X2.9395 Y0.3397 I0.0118 J0.1968
G1 X2.9435
G3 X2.9554 Y0.34 I0.0006 J0.2017
G3 X2.9667 Y0.3422 I-0.0014 J0.0379
G3 X2.9755 Y0.3481 I-0.0105 J0.0254
G3 X2.9806 Y0.3547 I-0.02 J0.0206
G3 X2.9837 Y0.3624 I-0.027 J0.0155
G3 X2.9848 Y0.3709 I-0.0341 J0.0086
G3 X2.9816 Y0.3853 I-0.0331 J0.0003
G3 X2.9746 Y0.3944 I-0.0252 J-0.0121
G0 Z0.125
G0 X3.0224 Y0.343
G1 F10.0 Z-0.004
G3 F25.0 X3.0218 Y0.3424 I0.027 J-0.0291
G3 X3.0147 Y0.3334 I0.0297 J-0.0306
G3 X3.0103 Y0.3229 I0.0341 J-0.0204
G3 X3.0088 Y0.3104 I0.0507 J-0.0125
G3 X3.0103 Y0.2979 I0.0463 J-0.0007
G3 X3.0147 Y0.2873 I0.0403 J0.0105
G3 X3.0218 Y0.2782 I0.0347 J0.0199
G3 X3.0349 Y0.2699 I0.027 J0.0278
G3 X3.0426 Y0.2678 I0.0157 J0.0437
G1 X3.0465 Y0.2673
G3 X3.0504 Y0.2669 I0.0051 J0.0353
G3 X3.0598 Y0.2666 I0.0096 J0.1352
G3 X3.0621 I0.0014 J0.0326
G3 X3.0656 I0.0018 J0.0519
G2 X3.0691 I0.0018 J-0.091
G1 X3.0785
G3 X3.0879 Y0.2669 I-0.0031 J0.2131
G1 X3.0918 Y0.2673
G3 X3.1034 Y0.2699 I-0.0043 J0.0465
G3 X3.1165 Y0.2782 I-0.0137 J0.0357
G3 X3.1236 Y0.2873 I-0.0308 J0.0313
G3 X3.128 Y0.2979 I-0.0382 J0.022
G3 X3.1295 Y0.3104 I-0.0511 J0.0126
G3 X3.128 Y0.3229 I-0.0457 J0.0007
G3 X3.1236 Y0.3334 I-0.0441 J-0.0122
G3 X3.1165 Y0.3424 I-0.0356 J-0.0207
G3 X3.1034 Y0.3508 I-0.0271 J-0.0277
G3 X3.0958 Y0.3529 I-0.0164 J-0.0454
G1 X3.0918 Y0.3535
G3 X3.0879 Y0.3538 I-0.0053 J-0.0356
G3 X3.0785 Y0.3542 I-0.01 J-0.1278
G3 X3.0762 Y0.3543 I-0.0015 J-0.0329
G3 X3.0727 I-0.0018 J-0.0537
G3 X3.0691 Y0.3542 I-0.0013 J-0.0982
G1 X3.0598
G3 X3.0504 Y0.3538 I0.0054 J-0.2448
G1 X3.0465 Y0.3535
G3 X3.0349 Y0.3508 I0.0057 J-0.0517
G3 X3.0224 Y0.343 I0.0146 J-0.0369
G0 Z0.125
G0 X3.0364 Y0.3257
G1 F10.0 Z-0.004
G2 F25.0 X3.0416 Y0.3287 I0.0127 J-0.0158
G2 X3.0515 Y0.3306 I0.0109 J-0.0318
G1 X3.0559 Y0.3308
G2 X3.0575 Y0.3309 I0.0014 J-0.0141
G2 X3.0633 Y0.331 I0.0104 J-0.3141
G2 X3.0663 I0.0018 J-0.0338
G2 X3.0691 Y0.3311 I0.0019 J-0.0592
G1 X3.0736 Y0.331
G2 X3.0868 Y0.3306 I-0.0015 J-0.2267
G1 X3.0893 Y0.3303
G2 X3.0967 Y0.3287 I-0.0023 J-0.0282
G2 X3.1025 Y0.3252 I-0.0065 J-0.0172
G2 X3.1058 Y0.3213 I-0.012 J-0.0137
G2 X3.108 Y0.3163 I-0.0182 J-0.011
G2 X3.1088 Y0.3104 I-0.0225 J-0.006
G2 X3.108 Y0.3044 I-0.0213 J-0.0002
G2 X3.1058 Y0.2994 I-0.0172 J0.0045
G2 X3.1025 Y0.2954 I-0.0177 J0.0116
G2 X3.0967 Y0.2919 I-0.0121 J0.0136
G2 X3.0918 Y0.2907 I-0.0076 J0.0198
G1 X3.0893 Y0.2904
G2 X3.0868 Y0.2902 I-0.0057 J0.0558
G2 X3.078 Y0.2898 I-0.0121 J0.1762
G1 X3.0691 Y0.2897
G2 X3.0515 Y0.2902 I-0.0023 J0.2475
G2 X3.0416 Y0.2919 I0.001 J0.0345
G2 X3.0358 Y0.2954 I0.0072 J0.0185
G2 X3.0325 Y0.2994 I0.0123 J0.0138
G2 X3.0303 Y0.3045 I0.0188 J0.0112
G2 X3.0295 Y0.3104 I0.0227 J0.006
G2 X3.0303 Y0.3163 I0.0208 J0.0002
G2 X3.0325 Y0.3213 I0.0164 J-0.0043
G2 X3.0358 Y0.3252 I0.0157 J-0.01
G2 X3.0364 Y0.3257 I0.0133 J-0.0153
G0 Z0.125
G0 X2.9825 Y0.3066
G1 F10.0 Z-0.004
G3 F25.0 X2.9817 Y0.3087 I-0.0362 J-0.0128
G3 X2.9782 Y0.3147 I-0.0234 J-0.0098
G3 X2.973 Y0.3194 I-0.0154 J-0.0116
G3 X2.9665 Y0.322 I-0.0111 J-0.0184
G3 X2.9648 Y0.3224 I-0.0029 J-0.0088
G1 X2.9595 Y0.3232
G3 X2.9526 Y0.3224 I0.0015 J-0.0405
G3 X2.9467 Y0.3199 I0.0043 J-0.0184
G3 X2.9419 Y0.3157 I0.0112 J-0.0179
G3 X2.9391 Y0.3117 I0.0133 J-0.0122
G3 X2.9371 Y0.3066 I0.0307 J-0.015
G3 X2.9363 Y0.3031 I0.029 J-0.0086
G1 X2.9357 Y0.2995
G1 X2.9342 Y0.2897
G2 X2.9331 Y0.2852 I-0.0432 J0.0077
G2 X2.9314 Y0.281 I-0.0191 J0.0052
G2 X2.9293 Y0.2777 I-0.015 J0.0074
G2 X2.9265 Y0.2755 I-0.0086 J0.0077
G2 X2.9231 Y0.2742 I-0.0063 J0.0114
G2 X2.919 Y0.2737 I-0.0041 J0.0191
G2 X2.9104 Y0.276 I-0.0002 J0.0173
G2 X2.9046 Y0.2823 I0.0082 J0.0132
G2 X2.9025 Y0.2925 I0.0213 J0.0097
G2 X2.9034 Y0.3008 I0.0337 J0.0007
G2 X2.906 Y0.3075 I0.0251 J-0.0058
G2 X2.9102 Y0.3132 I0.0397 J-0.0246
G1 X2.904 Y0.3194
G3 X2.8985 Y0.3116 I0.0421 J-0.0363
G3 X2.8953 Y0.3031 I0.0275 J-0.0151
G3 X2.8943 Y0.2929 I0.0407 J-0.0091
G3 X2.895 Y0.2851 I0.0384 J-0.0003
G3 X2.8974 Y0.2776 I0.0283 J0.0051
G3 X2.9062 Y0.2678 I0.0215 J0.0104
G3 X2.9194 Y0.2644 I0.0128 J0.022
G3 X2.926 Y0.2651 I0.0001 J0.0288
G3 X2.9315 Y0.2674 I-0.005 J0.0202
G3 X2.936 Y0.2711 I-0.0097 J0.0162
G3 X2.939 Y0.2755 I-0.0203 J0.0171
G3 X2.9413 Y0.281 I-0.0219 J0.0122
G3 X2.9428 Y0.2875 I-0.0569 J0.0165
G1 X2.9444 Y0.2979
G2 X2.9448 Y0.3005 I0.0485 J-0.0066
G1 X2.9454 Y0.3031
G2 X2.9467 Y0.3066 I0.019 J-0.0049
G2 X2.9487 Y0.3095 I0.0109 J-0.0056
G2 X2.9516 Y0.3119 I0.0096 J-0.0089
G2 X2.9554 Y0.3133 I0.0062 J-0.0109
G2 X2.9598 Y0.3137 I0.0042 J-0.0182
G2 X2.9687 Y0.3112 I0.0002 J-0.0161
G2 X2.9743 Y0.304 I-0.0097 J-0.0134
G2 X2.9759 Y0.2984 I-0.0233 J-0.0095
G2 X2.9763 Y0.2927 I-0.0332 J-0.0054
G2 X2.9754 Y0.2836 I-0.0393 J-0.0007
G2 X2.9723 Y0.2758 I-0.0266 J0.0059
G2 X2.9696 Y0.272 I-0.0193 J0.0108
G2 X2.9665 Y0.2685 I-0.0329 J0.0256
G1 X2.973 Y0.262
G3 X2.9798 Y0.2706 I-0.0422 J0.0399
G3 X2.9836 Y0.2805 I-0.0295 J0.017
G3 X2.9848 Y0.2925 I-0.0551 J0.0115
G3 X2.9841 Y0.3008 I-0.0429 J0.0005
G3 X2.9825 Y0.3066 I-0.0378 J-0.0069
( Profile1 )
S1000
G0 Z0.125
G0 X1.5463 Y3.3205
G1 F10.0 Z-0.004
G3 F25.0 Y3.3206 I-0.006 J-0.0061
G1 X1.537 Y3.3298
G3 X1.5366 Y3.3302 I-0.0028 J-0.0028
G1 X1.5355 Y3.331
G3 X1.5352 Y3.3313 I-0.0024 J-0.0032
G3 X1.5329 Y3.3322 I-0.0044 J-0.0072
G3 X1.5305 Y3.3325 I-0.0023 J-0.0083
G1 X1.4132
G3 X1.4098 Y3.3371 I-0.1621 J-0.116
G3 X1.4042 Y3.3432 I-0.0361 J-0.0272
G3 X1.39 Y3.3519 I-0.0298 J-0.0332
G3 X1.3731 Y3.355 I-0.0169 J-0.0442
G3 X1.349 Y3.3484 I0.0002 J-0.0482
G3 X1.3319 Y3.3313 I0.0242 J-0.0413
G3 X1.3253 Y3.3072 I0.0418 J-0.0242
G3 X1.3301 Y3.2867 I0.0468 J0.0001
G3 X1.343 Y3.2709 I0.04 J0.0193
G1 Y3.2708
G3 X1.3473 Y3.268 I0.0271 J0.0365
G3 X1.3519 Y3.2656 I0.0235 J0.0396
G3 X1.3609 Y3.2618 I0.0515 J0.1101
G1 X1.361
G1 X1.3644 Y3.2606
G3 X1.3645 I0.0013 J0.0038
G3 X1.3689 Y3.2597 I0.0065 J0.0206
G3 X1.373 Y3.2594 I0.0058 J0.0556
G3 X1.3775 Y3.2597 I0.0005 J0.026
G3 X1.3794 Y3.26 I-0.0172 J0.1089
G3 X1.3797 Y3.2601 I-0.0007 J0.0039
G1 X1.3815 Y3.2605
G3 X1.3836 Y3.2612 I-0.0051 J0.0193
G3 X1.3853 Y3.2618 I-0.0067 J0.0207
G3 X1.3911 Y3.2639 I-0.0232 J0.0728
G3 X1.3969 Y3.2666 I-0.0215 J0.0548
G3 X1.4072 Y3.2744 I-0.0209 J0.0382
G3 X1.4113 Y3.2794 I-0.0292 J0.0285
G3 X1.4135 Y3.2825 I-0.4038 J0.2874
G1 X1.4989
G1 Y3.2573
G1 X1.4867 Y3.2451
G3 X1.4863 Y3.2447 I0.0028 J-0.0028
G1 X1.4855 Y3.2436
G3 X1.4853 Y3.2433 I0.0032 J-0.0024
G3 X1.4843 Y3.2409 I0.007 J-0.0043
G3 X1.484 Y3.2386 I0.0085 J-0.0023
G1 Y3.1537
G3 Y3.1532 I0.004 J0.0
G1 X1.4842 Y3.1518
G3 X1.4843 Y3.1514 I0.004 J0.0005
G3 X1.4852 Y3.1491 I0.0082 J0.002
G3 X1.4867 Y3.1472 I0.0074 J0.0042
G1 X1.5042 Y3.1296
G3 X1.5046 Y3.1293 I0.0028 J0.0028
G1 X1.5057 Y3.1284
G3 X1.5061 Y3.1282 I0.0024 J0.0032
G3 X1.5084 Y3.1272 I0.0044 J0.0074
G3 X1.5108 Y3.1269 I0.0023 J0.0083
G1 X1.5356
G3 X1.5361 Y3.127 I0.0 J0.004
G1 X1.5375 Y3.1271
G3 X1.5379 Y3.1272 I-0.0005 J0.004
G3 X1.5402 Y3.1282 I-0.002 J0.0081
G3 X1.5421 Y3.1296 I-0.0044 J0.0077
G1 X1.5597 Y3.1472
G3 X1.56 Y3.1476 I-0.0028 J0.0028
G1 X1.5609 Y3.1487
G3 X1.5611 Y3.149 I-0.0032 J0.0024
G3 X1.5621 Y3.1513 I-0.0072 J0.0044
G3 X1.5624 Y3.1537 I-0.0083 J0.0023
G1 Y3.2386
G3 Y3.2391 I-0.004 J0.0
G1 X1.5622 Y3.2405
G3 X1.5621 Y3.2409 I-0.004 J-0.0005
G3 X1.5611 Y3.2432 I-0.0082 J-0.002
G3 X1.5597 Y3.2451 I-0.0076 J-0.0044
G1 X1.549 Y3.2558
G1 Y3.3141
G3 Y3.3146 I-0.004 J0.0
G1 X1.5488 Y3.3159
G3 X1.5487 Y3.3164 I-0.004 J-0.0005
G3 X1.5478 Y3.3187 I-0.0082 J-0.002
G3 X1.5463 Y3.3205 I-0.0074 J-0.0042
G0 Z0.125
G0 X1.6043 Y3.2627
G1 F10.0 Z-0.004
G1 F25.0 X1.6042 Y3.2626
G1 X1.5867 Y3.2451
G3 X1.5863 Y3.2447 I0.0028 J-0.0028
G1 X1.5855 Y3.2436
G3 X1.5852 Y3.2433 I0.0032 J-0.0024
G3 X1.5843 Y3.2409 I0.0072 J-0.0044
G3 X1.584 Y3.2386 I0.0084 J-0.0023
G1 Y3.1537
G3 Y3.1532 I0.004 J0.0
G1 X1.5842 Y3.1518
G3 X1.5843 Y3.1514 I0.004 J0.0005
G3 X1.5852 Y3.1491 I0.0081 J0.002
G3 X1.5867 Y3.1472 I0.0076 J0.0044
G1 X1.6042 Y3.1296
G3 X1.6046 Y3.1293 I0.0028 J0.0028
G1 X1.6057 Y3.1284
G3 X1.6061 Y3.1282 I0.0024 J0.0032
G3 X1.6084 Y3.1272 I0.0044 J0.0072
G3 X1.6108 Y3.1269 I0.0023 J0.0083
G1 X1.6356
G3 X1.6361 Y3.127 I0.0 J0.004
G1 X1.6375 Y3.1271
G3 X1.6379 Y3.1272 I-0.0005 J0.004
G3 X1.6402 Y3.1282 I-0.002 J0.0081
G3 X1.6421 Y3.1296 I-0.0044 J0.0076
G1 X1.6597 Y3.1472
G3 X1.66 Y3.1476 I-0.0028 J0.0028
G1 X1.6608 Y3.1487
G3 X1.6611 Y3.149 I-0.0032 J0.0024
G3 X1.6621 Y3.1514 I-0.007 J0.0043
G3 X1.6624 Y3.1537 I-0.0085 J0.0023
G1 Y3.1703
G1 X1.8489
G1 Y2.5204
G1 X1.8138
G1 X1.8117 Y2.5235
G3 Y2.5236 I-0.0033 J-0.0022
G1 X1.8105 Y2.5252
G3 X1.805 Y2.5316 I-0.0389 J-0.0281
G1 X1.8049
G3 X1.7904 Y2.5407 I-0.0298 J-0.0316
G3 X1.7731 Y2.544 I-0.0174 J-0.0447
G3 X1.749 Y2.5374 I0.0002 J-0.0484
G3 X1.7319 Y2.5203 I0.024 J-0.0412
G3 X1.7253 Y2.4962 I0.0414 J-0.0242
G3 X1.7286 Y2.4791 I0.0455 J-0.0001
G3 X1.7378 Y2.4649 I0.0398 J0.0155
G3 Y2.4648 I0.0029 J0.0028
G3 X1.7441 Y2.4594 I0.0414 J0.0424
G3 X1.7489 Y2.4562 I0.0613 J0.0839
G1 Y2.4369
G1 X1.7458 Y2.4348
G3 X1.7457 Y2.4347 I0.0022 J-0.0033
G1 X1.7441 Y2.4336
G3 X1.7377 Y2.428 I0.0297 J-0.0407
G3 X1.7286 Y2.4135 I0.0317 J-0.0299
G3 X1.7253 Y2.3962 I0.0439 J-0.0173
G3 X1.7256 Y2.3911 I0.0442 J0.0
G3 Y2.391 I0.004 J0.0005
G3 X1.7265 Y2.3863 I0.0844 J0.0121
G1 Y2.3862
G3 X1.7271 Y2.3839 I0.0296 J0.0066
G1 X1.6609 Y2.3177
G1 X1.6516 Y2.3084
G3 X1.6513 Y2.308 I0.0028 J-0.0028
G1 X1.6504 Y2.307
G3 X1.6502 Y2.3066 I0.0032 J-0.0024
G3 X1.6492 Y2.3043 I0.0072 J-0.0044
G3 X1.6489 Y2.3019 I0.0085 J-0.0023
G1 Y1.8888
G3 Y1.8883 I0.004 J0.0
G1 X1.6491 Y1.8869
G3 X1.6492 Y1.8865 I0.004 J0.0005
G3 X1.6501 Y1.8842 I0.0081 J0.002
G3 X1.6516 Y1.8823 I0.0076 J0.0044
G1 X1.6556 Y1.8783
G1 Y1.6427
G3 Y1.6422 I0.004 J0.0
G1 X1.6558 Y1.6409
G3 X1.6559 Y1.6404 I0.004 J0.0005
G3 X1.6568 Y1.6381 I0.0081 J0.002
G3 X1.6583 Y1.6362 I0.0076 J0.0044
G1 X1.6632 Y1.6313
G1 X1.6641 Y1.6304
G1 X1.6644 Y1.6299
G3 X1.6646 Y1.6297 I0.0033 J0.0023
G3 X1.6658 Y1.6285 I0.0066 J0.0053
G3 X1.6666 Y1.6279 I0.0057 J0.0068
G1 X1.7296 Y1.5649
G3 X1.73 Y1.5646 I0.0028 J0.0028
G1 X1.7311 Y1.5637
G3 X1.7314 Y1.5635 I0.0024 J0.0032
G3 X1.7337 Y1.5625 I0.0044 J0.0072
G3 X1.7361 Y1.5622 I0.0023 J0.0083
G1 X1.743
G3 X1.7435 Y1.5623 I0.0 J0.004
G1 X1.7445 Y1.5624
G3 X1.7448 I-0.0005 J0.004
G3 X1.7468 Y1.5632 I-0.0014 J0.0072
G3 X1.7469 I-0.0058 J0.0114
G1 X2.2174
G1 X2.2649 Y1.5158
G3 X2.2677 Y1.5146 I0.0028 J0.0028
G1 X2.3656
G1 X2.4142 Y1.466
G3 X2.417 Y1.4648 I0.0028 J0.0028
G1 X2.5242
G3 X2.5271 Y1.466 I0.0 J0.004
G1 X2.5897 Y1.5287
G1 X3.1266
G3 X3.1271 I0.0 J0.004
G1 X3.1284 Y1.5289
G3 X3.1289 Y1.529 I-0.0005 J0.004
G3 X3.1312 Y1.5299 I-0.002 J0.0082
G3 X3.1321 Y1.5305 I-0.0042 J0.0075
G1 X3.1335
G3 X3.134 I0.0 J0.004
G1 X3.1353 Y1.5307
G3 X3.1358 Y1.5308 I-0.0005 J0.004
G3 X3.1381 Y1.5318 I-0.002 J0.0082
G3 X3.1399 Y1.5331 I-0.0043 J0.0075
G1 X3.1473
G3 X3.1513 Y1.5371 I0.0 J0.004
G1 Y1.5446
G1 X3.1546 Y1.5479
G3 X3.155 Y1.5483 I-0.0028 J0.0028
G1 X3.1558 Y1.5493
G3 X3.156 Y1.5497 I-0.0032 J0.0024
G3 X3.157 Y1.552 I-0.0071 J0.0043
G3 X3.1573 Y1.5544 I-0.0085 J0.0023
G1 Y2.0065
G3 Y2.0071 I-0.004 J0.0
G1 X3.1571 Y2.0084
G3 X3.157 Y2.0088 I-0.004 J-0.0005
G3 X3.1561 Y2.0111 I-0.0083 J-0.002
G3 X3.1546 Y2.0131 I-0.0075 J-0.0042
G1 X3.1409 Y2.0268
G1 X3.0573 Y2.1104
G1 Y2.2638
G1 X3.0601 Y2.2668
G1 Y2.2669
G3 X3.0639 Y2.2718 I-0.0374 J0.0322
G3 X3.0691 Y2.2834 I-0.0341 J0.0223
G3 X3.0709 Y2.2962 I-0.046 J0.0131
G3 X3.0644 Y2.3203 I-0.0482 J-0.0001
G3 X3.0472 Y2.3374 I-0.0412 J-0.024
G3 X3.0231 Y2.344 I-0.0241 J-0.0413
G3 X2.999 Y2.3375 I0.0002 J-0.0483
G1 Y2.3374
G3 X2.9819 Y2.3203 I0.0243 J-0.0415
G3 X2.9753 Y2.2962 I0.0416 J-0.0242
G3 X2.9772 Y2.2833 I0.0454 J-0.0001
G3 X2.9823 Y2.2719 I0.0429 J0.0125
G1 X2.9824 Y2.2718
G3 X2.9861 Y2.2669 I0.0402 J0.0267
G3 X2.9889 Y2.2637 I0.05 J0.0411
G1 Y2.0858
G3 Y2.0853 I0.004 J0.0
G1 X2.9891 Y2.084
G3 X2.9892 Y2.0835 I0.004 J0.0005
G3 X2.9901 Y2.0812 I0.0082 J0.002
G3 X2.9916 Y2.0793 I0.0074 J0.0042
G1 X3.0062 Y2.0647
G3 X3.0065 Y2.0644 I0.0028 J0.0028
G1 X3.0889 Y1.982
G1 Y1.5781
G1 X2.5663
G3 X2.5635 Y1.577 I0.0 J-0.004
G1 X2.5002 Y1.5137
G1 X2.4304
G1 X2.3831 Y1.561
G3 X2.3827 Y1.5614 I-0.0028 J-0.0028
G1 X2.3816 Y1.5622
G3 X2.3813 Y1.5625 I-0.0024 J-0.0032
G3 X2.3789 Y1.5634 I-0.0043 J-0.0071
G3 X2.3765 Y1.5637 I-0.0023 J-0.0085
G1 X2.2804
G1 X2.2465 Y1.5976
G3 X2.2461 Y1.5979 I-0.0028 J-0.0028
G3 X2.2428 Y1.5999 I-0.0083 J-0.0106
G3 X2.2425 Y1.6 I-0.0015 J-0.0037
G3 X2.2376 I-0.0026 J-0.0081
G3 X2.2375 I0.0011 J-0.0038
G3 X2.2348 Y1.5987 I0.0038 J-0.0112
G1 X1.7685
G1 X1.7005 Y1.6667
G1 Y2.2865
G1 X1.7639 Y2.3499
G1 X1.7648 Y2.3496
G3 X1.7649 Y2.3495 I0.0013 J0.0038
G3 X1.7691 Y2.3487 I0.0065 J0.0213
G3 X1.773 Y2.3484 I0.0051 J0.0453
G3 X1.7775 Y2.3487 I0.0005 J0.0255
G1 X1.7776
G1 X1.7794 Y2.349
G3 X1.7797 Y2.3491 I-0.0007 J0.0039
G1 X1.7815 Y2.3495
G3 X1.7836 Y2.3502 I-0.005 J0.0192
G3 X1.7855 Y2.3509 I-0.0067 J0.0207
G3 X1.7943 Y2.3546 I-0.0987 J0.2473
G3 X1.8032 Y2.3599 I-0.0185 J0.0417
G1 X1.8033
G3 X1.8161 Y2.3757 I-0.0273 J0.0352
G3 X1.8209 Y2.3962 I-0.0417 J0.0205
G3 X1.8179 Y2.4128 I-0.0464 J0.0002
G3 X1.8095 Y2.427 I-0.0422 J-0.0155
G3 X1.8094 Y2.4271 I-0.003 J-0.0026
G3 X1.8035 Y2.4325 I-0.0416 J-0.039
G3 X1.799 Y2.4359 I-0.084 J-0.106
G1 Y2.4571
G1 X1.8002 Y2.4579
G1 X1.8003
G3 X1.8035 Y2.4602 I-0.0298 J0.0449
G1 Y2.4603
G3 X1.8094 Y2.4658 I-0.0265 J0.0335
G3 Y2.4659 I-0.003 J0.0026
G3 X1.8128 Y2.4703 I-0.0725 J0.0583
G1 X1.8805
G3 X1.881 I0.0 J0.004
G1 X1.8824 Y2.4705
G3 X1.8828 Y2.4706 I-0.0005 J0.004
G3 X1.8851 Y2.4715 I-0.002 J0.0082
G3 X1.887 Y2.473 I-0.0042 J0.0075
G1 X1.8963 Y2.4823
G3 X1.8966 Y2.4827 I-0.0028 J0.0028
G1 X1.8975 Y2.4838
G3 X1.8977 Y2.4841 I-0.0032 J0.0024
G3 X1.8987 Y2.4864 I-0.0072 J0.0044
G3 X1.899 Y2.4888 I-0.0084 J0.0023
G1 Y3.2019
G3 Y3.2024 I-0.004 J0.0
G1 X1.8988 Y3.2038
G3 X1.8987 Y3.2042 I-0.004 J-0.0005
G3 X1.8977 Y3.2065 I-0.0081 J-0.002
G3 X1.8963 Y3.2084 I-0.0076 J-0.0044
G1 X1.887 Y3.2177
G3 X1.8866 Y3.218 I-0.0028 J-0.0028
G1 X1.8856 Y3.2189
G3 X1.8852 Y3.2191 I-0.0024 J-0.0032
G3 X1.8829 Y3.2201 I-0.0043 J-0.007
G3 X1.8805 Y3.2204 I-0.0023 J-0.0085
G1 X1.6624
G1 Y3.2386
G3 X1.6623 Y3.2391 I-0.004 J0.0
G1 X1.6622 Y3.2404
G3 X1.6621 Y3.2409 I-0.004 J-0.0005
G3 X1.6611 Y3.2432 I-0.0082 J-0.002
G3 X1.6596 Y3.2451 I-0.0074 J-0.0042
G1 X1.6421 Y3.2627
G3 X1.6417 Y3.263 I-0.0028 J-0.0028
G1 X1.6406 Y3.2638
G3 X1.6403 Y3.2641 I-0.0024 J-0.0032
G3 X1.638 Y3.265 I-0.0044 J-0.0072
G3 X1.6356 Y3.2654 I-0.0023 J-0.0084
G1 X1.6107
G3 X1.6102 Y3.2653 I0.0 J-0.004
G1 X1.6089 Y3.2651
G3 X1.6084 I0.0005 J-0.004
G3 X1.6061 Y3.2641 I0.002 J-0.0081
G3 X1.6043 Y3.2627 I0.0044 J-0.0076
G0 Z0.125
G0 Y3.1204
G1 F10.0 Z-0.004
G1 F25.0 X1.449
G1 Y3.1365
G1 X1.4597 Y3.1472
G3 X1.46 Y3.1476 I-0.0028 J0.0028
G1 X1.4609 Y3.1487
G3 X1.4611 Y3.149 I-0.0032 J0.0024
G3 X1.4621 Y3.1513 I-0.0072 J0.0044
G3 X1.4624 Y3.1537 I-0.0083 J0.0023
G1 Y3.2386
G3 Y3.2391 I-0.004 J0.0
G1 X1.4622 Y3.2405
G3 X1.4621 Y3.2409 I-0.004 J-0.0005
G3 X1.4611 Y3.2432 I-0.0082 J-0.002
G3 X1.4597 Y3.2451 I-0.0076 J-0.0044
G1 X1.4421 Y3.2627
G3 X1.4417 Y3.263 I-0.0028 J-0.0028
G1 X1.4406 Y3.2638
G3 X1.4403 Y3.2641 I-0.0024 J-0.0032
G3 X1.438 Y3.265 I-0.0044 J-0.0072
G3 X1.4356 Y3.2654 I-0.0023 J-0.0084
G1 X1.4108
G3 X1.4102 Y3.2653 I0.0 J-0.004
G1 X1.4089 Y3.2651
G3 X1.4085 I0.0005 J-0.004
G3 X1.4061 Y3.2641 I0.002 J-0.0081
G3 X1.4042 Y3.2626 I0.0044 J-0.0076
G1 X1.3867 Y3.2451
G3 X1.3863 Y3.2447 I0.0028 J-0.0028
G1 X1.3855 Y3.2436
G3 X1.3853 Y3.2433 I0.0032 J-0.0024
G3 X1.3843 Y3.2409 I0.0072 J-0.0044
G3 X1.384 Y3.2386 I0.0084 J-0.0023
G1 Y3.1537
G3 Y3.1532 I0.004 J0.0
G1 X1.3842 Y3.1518
G3 X1.3843 Y3.1514 I0.004 J0.0005
G3 X1.3852 Y3.1491 I0.0081 J0.002
G3 X1.3867 Y3.1472 I0.0076 J0.0044
G1 X1.3989 Y3.135
G1 Y3.0888
G3 X1.399 Y3.0883 I0.004 J0.0
G1 X1.3991 Y3.0869
G3 X1.3992 Y3.0865 I0.004 J0.0005
G3 X1.4001 Y3.0842 I0.0082 J0.002
G3 X1.4016 Y3.0823 I0.0074 J0.0042
G1 X1.4109 Y3.073
G3 X1.4113 Y3.0727 I0.0028 J0.0028
G1 X1.4124 Y3.0718
G3 X1.4127 Y3.0716 I0.0024 J0.0032
G3 X1.415 Y3.0706 I0.0044 J0.0072
G3 X1.4174 Y3.0703 I0.0023 J0.0084
G1 X1.7489
G1 Y2.6704
G1 X1.414
G3 X1.4105 Y2.6756 I-0.0596 J-0.0365
G1 X1.4104 Y2.6757
G3 X1.4042 Y2.6822 I-0.0326 J-0.0249
G1 X1.4041 Y2.6823
G3 X1.399 Y2.686 I-0.0508 J-0.0637
G1 Y2.7571
G3 X1.4034 Y2.7604 I-0.0695 J0.0983
G3 X1.4094 Y2.7659 I-0.0249 J0.0336
G3 X1.4179 Y2.7797 I-0.0317 J0.0288
G3 X1.4209 Y2.7962 I-0.044 J0.0167
G3 X1.4144 Y2.8203 I-0.0479 J-0.0001
G3 X1.3972 Y2.8374 I-0.0411 J-0.024
G3 X1.3731 Y2.844 I-0.0241 J-0.0414
G3 X1.349 Y2.8374 I0.0002 J-0.0483
G3 X1.3319 Y2.8203 I0.0245 J-0.0417
G3 X1.3253 Y2.7962 I0.0415 J-0.0242
G3 X1.3286 Y2.7791 I0.0455 J-0.0001
G3 X1.3378 Y2.7649 I0.0398 J0.0155
G3 Y2.7648 I0.0029 J0.0028
G3 X1.3442 Y2.7594 I0.0409 J0.0419
G3 X1.3489 Y2.7561 I0.0597 J0.0816
G1 Y2.687
G3 X1.3432 Y2.6831 I0.0456 J-0.0732
G3 X1.3431 I0.0024 J-0.0032
G3 X1.3362 Y2.6762 I0.0249 J-0.0318
G3 X1.3322 Y2.6704 I0.0576 J-0.0437
G1 X1.1638
G1 X1.1618 Y2.6735
G3 X1.1617 Y2.6736 I-0.0033 J-0.0022
G1 X1.1605 Y2.6752
G3 X1.155 Y2.6816 I-0.0388 J-0.028
G1 X1.1549
G3 X1.1404 Y2.6907 I-0.0299 J-0.0317
G3 X1.1231 Y2.694 I-0.0174 J-0.0447
G3 X1.099 Y2.6874 I0.0002 J-0.0484
G3 X1.0819 Y2.6703 I0.0242 J-0.0413
G3 X1.0753 Y2.6462 I0.0418 J-0.0242
G3 X1.0801 Y2.6257 I0.0467 J0.0001
G3 X1.093 Y2.6099 I0.04 J0.0193
G1 Y2.6098
G3 X1.0973 Y2.607 I0.027 J0.0363
G3 X1.1019 Y2.6046 I0.0234 J0.0394
G3 X1.1109 Y2.6008 I0.0511 J0.1092
G1 X1.111
G1 X1.1144 Y2.5996
G3 X1.1145 I0.0013 J0.0038
G3 X1.1189 Y2.5987 I0.0066 J0.0209
G3 X1.123 Y2.5984 I0.0056 J0.0528
G3 X1.1275 Y2.5987 I0.0005 J0.026
G3 X1.1294 Y2.599 I-0.0182 J0.1138
G3 X1.1297 Y2.5991 I-0.0007 J0.0039
G1 X1.1315 Y2.5995
G3 X1.1336 Y2.6002 I-0.0052 J0.0197
G3 X1.1353 Y2.6008 I-0.0068 J0.0212
G3 X1.1408 Y2.6028 I-0.0213 J0.0677
G3 X1.1464 Y2.6053 I-0.0238 J0.0603
G1 X1.1465 Y2.6054
G3 X1.1565 Y2.6128 I-0.0199 J0.0373
G3 X1.1605 Y2.6174 I-0.0308 J0.0309
G1 X1.1627 Y2.6203
G1 X1.2371
G1 Y2.3704
G1 X1.1747
G1 X1.1665 Y2.3786
G3 X1.1661 Y2.379 I-0.0028 J-0.0028
G1 X1.165 Y2.3798
G3 X1.1646 Y2.38 I-0.0024 J-0.0032
G3 X1.1623 Y2.381 I-0.0043 J-0.0071
G3 X1.1599 Y2.3813 I-0.0023 J-0.0085
G1 X1.0864
G3 X1.0859 I0.0 J-0.004
G1 X1.0846 Y2.3811
G3 X1.0841 Y2.381 I0.0005 J-0.004
G3 X1.0818 Y2.3801 I0.002 J-0.0082
G3 X1.0799 Y2.3786 I0.0043 J-0.0076
G1 X1.0647 Y2.3634
G3 X1.0643 Y2.363 I0.0028 J-0.0028
G1 X1.0635 Y2.3619
G3 X1.0633 Y2.3615 I0.0032 J-0.0024
G3 X1.0623 Y2.3592 I0.0071 J-0.0044
G3 X1.062 Y2.3568 I0.0084 J-0.0023
G1 Y2.3353
G3 Y2.3348 I0.004 J0.0
G1 X1.0622 Y2.3335
G3 X1.0623 Y2.333 I0.004 J0.0005
G3 X1.0632 Y2.3307 I0.0082 J0.002
G3 X1.0647 Y2.3288 I0.0074 J0.0042
G1 X1.0799 Y2.3136
G3 X1.0803 Y2.3132 I0.0028 J0.0028
G1 X1.0814 Y2.3124
G3 X1.0817 Y2.3122 I0.0024 J0.0032
G3 X1.0841 Y2.3112 I0.0044 J0.0071
G3 X1.0865 Y2.3109 I0.0023 J0.0084
G1 X1.16
G3 X1.1605 I0.0 J0.004
G1 X1.1618 Y2.3111
G3 X1.1623 Y2.3112 I-0.0005 J0.004
G3 X1.1646 Y2.3121 I-0.002 J0.0082
G3 X1.1665 Y2.3136 I-0.0042 J0.0074
G1 X1.1732 Y2.3203
G1 X1.2687
G3 X1.2692 Y2.3204 I0.0 J0.004
G1 X1.2706 Y2.3205
G3 X1.271 Y2.3206 I-0.0005 J0.004
G3 X1.2733 Y2.3215 I-0.002 J0.0082
G3 X1.2752 Y2.323 I-0.0042 J0.0075
G1 X1.2845 Y2.3323
G3 X1.2848 Y2.3327 I-0.0028 J0.0028
G1 X1.2857 Y2.3338
G3 X1.2859 Y2.3341 I-0.0032 J0.0024
G3 X1.2869 Y2.3365 I-0.007 J0.0043
G3 X1.2872 Y2.3388 I-0.0086 J0.0023
G1 Y2.6203
G1 X1.3335
G3 X1.3358 Y2.6173 I0.0584 J0.0424
G3 X1.3397 Y2.6128 I0.0567 J0.0455
G3 X1.3498 Y2.6053 I0.0291 J0.0288
G3 X1.3555 Y2.6028 I0.022 J0.0413
G1 X1.3609 Y2.6008
G1 X1.361
G1 X1.3644 Y2.5996
G3 X1.3645 I0.0013 J0.0038
G3 X1.3689 Y2.5987 I0.0066 J0.0209
G3 X1.373 Y2.5984 I0.0056 J0.0528
G3 X1.3775 Y2.5987 I0.0005 J0.026
G3 X1.3794 Y2.599 I-0.0182 J0.1138
G3 X1.3797 Y2.5991 I-0.0007 J0.0039
G1 X1.3815 Y2.5995
G3 X1.3836 Y2.6002 I-0.0052 J0.0197
G3 X1.3853 Y2.6008 I-0.0068 J0.0212
G3 X1.3908 Y2.6028 I-0.0213 J0.0677
G3 X1.3964 Y2.6053 I-0.0238 J0.0603
G1 X1.3965 Y2.6054
G3 X1.4065 Y2.6128 I-0.0199 J0.0373
G3 X1.4105 Y2.6174 I-0.0308 J0.0309
G1 X1.4127 Y2.6203
G1 X1.7805
G3 X1.781 I0.0 J0.004
G1 X1.7824 Y2.6205
G3 X1.7828 Y2.6206 I-0.0005 J0.004
G3 X1.7851 Y2.6215 I-0.002 J0.0082
G3 X1.787 Y2.623 I-0.0042 J0.0074
G1 X1.7963 Y2.6323
G3 X1.7966 Y2.6327 I-0.0028 J0.0028
G1 X1.7975 Y2.6338
G3 X1.7977 Y2.6341 I-0.0032 J0.0024
G3 X1.7987 Y2.6364 I-0.0072 J0.0044
G3 X1.799 Y2.6388 I-0.0084 J0.0023
G1 Y3.1019
G3 Y3.1024 I-0.004 J0.0
G1 X1.7988 Y3.1038
G3 X1.7987 Y3.1042 I-0.004 J-0.0005
G3 X1.7977 Y3.1065 I-0.0081 J-0.002
G3 X1.7963 Y3.1084 I-0.0076 J-0.0044
G1 X1.787 Y3.1177
G3 X1.7866 Y3.118 I-0.0028 J-0.0028
G1 X1.7855 Y3.1189
G3 X1.7852 Y3.1191 I-0.0024 J-0.0032
G3 X1.7829 Y3.1201 I-0.0044 J-0.0072
G3 X1.7805 Y3.1204 I-0.0023 J-0.0083
G1 X1.6043
G0 Z0.125
G0 X1.6499 Y3.0379
G1 F10.0 Z-0.004
G3 F25.0 X1.649 Y3.0374 I0.0234 J-0.0422
G3 X1.6319 Y3.0203 I0.0245 J-0.0417
G3 X1.6253 Y2.9962 I0.0415 J-0.0242
G3 X1.6286 Y2.9791 I0.0455 J-0.0001
G3 X1.6377 Y2.9649 I0.0398 J0.0155
G3 X1.6378 Y2.9648 I0.0029 J0.0028
G3 X1.6441 Y2.9594 I0.041 J0.042
G3 X1.6489 Y2.9561 I0.0599 J0.0819
G1 Y2.9204
G1 X1.1747
G1 X1.1665 Y2.9286
G3 X1.1661 Y2.929 I-0.0028 J-0.0028
G1 X1.165 Y2.9298
G3 X1.1646 Y2.9301 I-0.0024 J-0.0032
G3 X1.1623 Y2.931 I-0.0044 J-0.0072
G3 X1.1599 Y2.9313 I-0.0023 J-0.0083
G1 X1.0864
G3 X1.0859 I0.0 J-0.004
G1 X1.0845 Y2.9311
G3 X1.0841 Y2.931 I0.0005 J-0.004
G3 X1.0818 Y2.9301 I0.0019 J-0.0081
G3 X1.0799 Y2.9286 I0.0044 J-0.0077
G1 X1.0647 Y2.9134
G3 X1.0644 Y2.913 I0.0028 J-0.0028
G1 X1.0635 Y2.9119
G3 X1.0633 Y2.9116 I0.0032 J-0.0024
G3 X1.0623 Y2.9093 I0.007 J-0.0043
G3 X1.062 Y2.9069 I0.0085 J-0.0023
G1 Y2.8854
G3 Y2.8848 I0.004 J0.0
G1 X1.0622 Y2.8835
G3 X1.0623 Y2.8831 I0.004 J0.0005
G3 X1.0632 Y2.8807 I0.0082 J0.002
G3 X1.0647 Y2.8788 I0.0074 J0.0042
G1 X1.0799 Y2.8636
G3 X1.0803 Y2.8632 I0.0028 J0.0028
G1 X1.0814 Y2.8624
G3 X1.0818 Y2.8622 I0.0024 J0.0032
G3 X1.0841 Y2.8612 I0.0043 J0.0072
G3 X1.0865 Y2.8609 I0.0023 J0.0085
G1 X1.16
G3 X1.1605 Y2.861 I0.0 J0.004
G1 X1.1618 Y2.8611
G3 X1.1623 Y2.8612 I-0.0005 J0.004
G3 X1.1646 Y2.8621 I-0.002 J0.0082
G3 X1.1665 Y2.8636 I-0.0042 J0.0075
G1 X1.1732 Y2.8703
G1 X1.6489
G1 Y2.8369
G1 X1.6458 Y2.8348
G3 X1.6457 I0.0022 J-0.0033
G1 X1.6441 Y2.8336
G3 X1.6377 Y2.828 I0.0288 J-0.0397
G3 X1.6286 Y2.8135 I0.0326 J-0.0304
G3 X1.6253 Y2.7962 I0.0439 J-0.0173
G3 X1.6301 Y2.7757 I0.0475 J0.0003
G3 X1.643 Y2.7599 I0.0394 J0.0189
G3 X1.6431 Y2.7598 I0.0024 J0.0032
G3 X1.6518 Y2.7547 I0.0335 J0.0469
G1 X1.6519 Y2.7546
G3 X1.6609 Y2.7509 I0.0505 J0.1075
G1 X1.661 Y2.7508
G1 X1.6644 Y2.7496
G3 X1.6645 I0.0013 J0.0038
G3 X1.6689 Y2.7487 I0.0066 J0.021
G3 X1.673 Y2.7484 I0.0055 J0.0513
G3 X1.6775 Y2.7487 I0.0005 J0.026
G3 X1.6794 Y2.749 I-0.0172 J0.108
G3 X1.6797 Y2.7491 I-0.0007 J0.0039
G1 X1.6815 Y2.7495
G3 X1.6836 Y2.7502 I-0.0052 J0.0197
G3 X1.6855 Y2.7509 I-0.0068 J0.0212
G3 X1.6943 Y2.7546 I-0.0957 J0.24
G3 X1.7032 Y2.7599 I-0.0185 J0.0417
G1 X1.7033
G3 X1.7161 Y2.7757 I-0.0273 J0.0352
G3 X1.7209 Y2.7962 I-0.0417 J0.0205
G3 X1.7179 Y2.8128 I-0.0489 J-0.0003
G3 X1.7095 Y2.827 I-0.0422 J-0.0155
G3 X1.7094 Y2.8271 I-0.003 J-0.0026
G3 X1.7035 Y2.8325 I-0.0416 J-0.0389
G3 X1.699 Y2.8359 I-0.0835 J-0.1055
G1 Y2.9571
G3 X1.7034 Y2.9604 I-0.0732 J0.1036
G3 X1.7094 Y2.9659 I-0.025 J0.0337
G3 X1.7178 Y2.9797 I-0.0316 J0.0287
G3 X1.7209 Y2.9962 I-0.044 J0.0166
G3 X1.7144 Y3.0203 I-0.048 J-0.0001
G3 X1.6972 Y3.0374 I-0.0411 J-0.0239
G3 X1.6731 Y3.044 I-0.0241 J-0.0413
G3 X1.6499 Y3.0379 I0.0002 J-0.0483
G0 Z0.125
G0 X1.4204 Y3.0033
G1 F10.0 Z-0.004
G3 F25.0 X1.4144 Y3.0203 I-0.0475 J-0.0072
G3 X1.3972 Y3.0375 I-0.0394 J-0.0222
G3 X1.397 I-0.002 J-0.0035
G3 X1.3853 Y3.0418 I-0.0229 J-0.0448
G1 X1.3852
G3 X1.3737 Y3.0439 I-0.0408 J-0.1899
G3 X1.3727 I-0.0006 J-0.004
G3 X1.3645 Y3.0429 I0.0125 J-0.1282
G3 X1.3559 Y3.0407 I0.007 J-0.0458
G3 X1.3413 Y3.0316 I0.0139 J-0.0385
G1 X1.3412 Y3.0315
G3 X1.3333 Y3.0217 I0.0456 J-0.045
G3 X1.3324 Y3.0204 I0.0184 J-0.0136
G1 X1.309
G3 X1.306 Y3.0242 I-0.0903 J-0.0673
G3 X1.301 Y3.0296 I-0.0318 J-0.0251
G1 X1.3009
G3 X1.2881 Y3.0371 I-0.0264 J-0.0304
G3 X1.2731 Y3.0398 I-0.0151 J-0.0408
G3 X1.2581 Y3.0371 I0.0001 J-0.0437
G3 X1.2453 Y3.0296 I0.0139 J-0.0384
G3 X1.2452 Y3.0295 I0.0026 J-0.003
G3 X1.2402 Y3.0242 I0.0363 J-0.0393
G3 X1.2372 Y3.0204 I0.1219 J-0.0975
G1 X1.1747
G1 X1.1665 Y3.0286
G3 X1.1661 Y3.029 I-0.0028 J-0.0028
G1 X1.165 Y3.0298
G3 X1.1646 Y3.0301 I-0.0024 J-0.0032
G3 X1.1623 Y3.031 I-0.0044 J-0.0072
G3 X1.1599 Y3.0313 I-0.0023 J-0.0083
G1 X1.0864
G3 X1.0859 I0.0 J-0.004
G1 X1.0845 Y3.0311
G3 X1.0841 Y3.031 I0.0005 J-0.004
G3 X1.0818 Y3.0301 I0.0019 J-0.0081
G3 X1.0799 Y3.0286 I0.0044 J-0.0077
G1 X1.0647 Y3.0134
G3 X1.0644 Y3.013 I0.0028 J-0.0028
G1 X1.0635 Y3.0119
G3 X1.0633 Y3.0116 I0.0032 J-0.0024
G3 X1.0623 Y3.0093 I0.007 J-0.0043
G3 X1.062 Y3.0069 I0.0085 J-0.0023
G1 Y2.9854
G3 Y2.9848 I0.004 J0.0
G1 X1.0622 Y2.9835
G3 X1.0623 Y2.9831 I0.004 J0.0005
G3 X1.0632 Y2.9808 I0.0082 J0.002
G3 X1.0647 Y2.9788 I0.0074 J0.0042
G1 X1.0799 Y2.9636
G3 X1.0803 Y2.9633 I0.0028 J0.0028
G1 X1.0814 Y2.9624
G3 X1.0817 Y2.9622 I0.0024 J0.0032
G3 X1.0841 Y2.9612 I0.0044 J0.0071
G3 X1.0865 Y2.9609 I0.0023 J0.0084
G1 X1.16
G3 X1.1605 Y2.961 I0.0 J0.004
G1 X1.1618 Y2.9611
G3 X1.1623 Y2.9612 I-0.0005 J0.004
G3 X1.1646 Y2.9622 I-0.002 J0.0082
G3 X1.1665 Y2.9636 I-0.0042 J0.0074
G1 X1.1732 Y2.9703
G1 X1.2387
G1 X1.2403 Y2.9683
G3 X1.2404 Y2.9682 I0.0031 J0.0025
G3 X1.2437 Y2.9647 I0.0441 J0.0384
G1 X1.2438
G3 X1.2519 Y2.9588 I0.0262 J0.0278
G1 X1.252
G3 X1.2587 Y2.9559 I0.0295 J0.0586
G3 X1.261 Y2.955 I0.013 J0.0317
G1 X1.2644 Y2.9538
G3 X1.2645 I0.0013 J0.0038
G3 X1.2689 Y2.9529 I0.0066 J0.0207
G3 X1.273 Y2.9526 I0.0057 J0.0547
G1 X1.2731
G3 X1.2775 Y2.9529 I0.0005 J0.026
G3 X1.2794 Y2.9532 I-0.0196 J0.1234
G3 X1.2797 Y2.9533 I-0.0007 J0.0039
G1 X1.2815 Y2.9537
G3 X1.2836 Y2.9544 I-0.005 J0.0191
G3 X1.2854 Y2.9551 I-0.0066 J0.0204
G1 X1.2897 Y2.9567
G3 X1.2898 I-0.0014 J0.0037
G3 X1.2942 Y2.9588 I-0.0238 J0.0576
G1 X1.2943
G3 X1.3025 Y2.9647 I-0.0178 J0.0334
G3 X1.3026 Y2.9648 I-0.0027 J0.0029
G3 X1.3073 Y2.97 I-0.0522 J0.0523
G3 X1.3076 Y2.9703 I-0.0259 J0.0226
G1 X1.3335
G3 X1.3358 Y2.9673 I0.0593 J0.0431
G3 X1.3397 Y2.9628 I0.0575 J0.0462
G3 X1.3498 Y2.9554 I0.029 J0.0286
G3 X1.3555 Y2.9528 I0.0221 J0.0416
G1 X1.3609 Y2.9508
G1 X1.361
G1 X1.3644 Y2.9496
G3 X1.3645 I0.0013 J0.0038
G3 X1.3689 Y2.9487 I0.0065 J0.0206
G3 X1.373 Y2.9484 I0.0058 J0.0556
G3 X1.3775 Y2.9487 I0.0005 J0.026
G3 X1.3794 Y2.949 I-0.0173 J0.1096
G3 X1.3797 Y2.9491 I-0.0007 J0.0039
G1 X1.3815 Y2.9495
G3 X1.3836 Y2.9502 I-0.0051 J0.0192
G3 X1.3855 Y2.9509 I-0.0067 J0.0207
G3 X1.3943 Y2.9546 I-0.0865 J0.2182
G3 X1.4032 Y2.9599 I-0.0183 J0.0414
G1 X1.4033
G3 X1.4161 Y2.9757 I-0.027 J0.035
G3 X1.4209 Y2.9962 I-0.0418 J0.0205
G3 X1.4204 Y3.0033 I-0.048 J-0.0001
G0 Z0.125
G0 X1.1824 Y2.8126
G1 F10.0 Z-0.004
G3 F25.0 X1.1817 Y2.8134 I-0.0068 J-0.0055
G1 X1.1665 Y2.8286
G3 X1.1661 Y2.829 I-0.0028 J-0.0028
G1 X1.165 Y2.8298
G3 X1.1646 Y2.8301 I-0.0024 J-0.0032
G3 X1.1623 Y2.831 I-0.0043 J-0.0071
G3 X1.1599 Y2.8313 I-0.0023 J-0.0085
G1 X1.0864
G3 X1.0859 I0.0 J-0.004
G1 X1.0846 Y2.8311
G3 X1.0841 Y2.831 I0.0005 J-0.004
G3 X1.0818 Y2.8301 I0.002 J-0.0082
G3 X1.0799 Y2.8286 I0.0043 J-0.0076
G1 X1.0717 Y2.8204
G1 X1.049
G1 Y3.435
G1 X1.0843 Y3.4703
G1 X1.4805
G3 X1.481 I0.0 J0.004
G1 X1.4824 Y3.4705
G3 X1.4828 Y3.4706 I-0.0005 J0.004
G3 X1.4851 Y3.4716 I-0.002 J0.0081
G3 X1.487 Y3.473 I-0.0044 J0.0076
G1 X1.4963 Y3.4823
G3 X1.4966 Y3.4827 I-0.0028 J0.0028
G1 X1.4975 Y3.4837
G3 X1.4977 Y3.4841 I-0.0032 J0.0024
G3 X1.4987 Y3.4864 I-0.007 J0.0043
G3 X1.499 Y3.4888 I-0.0085 J0.0023
G1 Y3.557
G1 X1.5003 Y3.5578
G3 X1.5004 Y3.5579 I-0.0021 J0.0034
G3 X1.5037 Y3.5604 I-0.0247 J0.0363
G3 X1.5056 Y3.562 I-0.027 J0.0333
G1 X1.5835
G3 X1.584 I0.0 J0.004
G1 X1.5854 Y3.5622
G3 X1.5858 Y3.5623 I-0.0005 J0.004
G3 X1.5881 Y3.5632 I-0.002 J0.0081
G3 X1.59 Y3.5647 I-0.0044 J0.0076
G1 X1.6046 Y3.5793
G3 X1.605 Y3.5797 I-0.0028 J0.0028
G1 X1.6058 Y3.5808
G3 X1.606 Y3.5811 I-0.0032 J0.0024
G3 X1.607 Y3.5834 I-0.0072 J0.0044
G3 X1.6073 Y3.5858 I-0.0084 J0.0023
G1 Y3.7638
G1 X1.6101 Y3.7668
G1 Y3.7669
G3 X1.6139 Y3.7718 I-0.0375 J0.0324
G3 X1.6191 Y3.7833 I-0.034 J0.0222
G3 X1.6209 Y3.7962 I-0.0461 J0.0131
G3 X1.6144 Y3.8203 I-0.0482 J-0.0002
G3 X1.5972 Y3.8374 I-0.0412 J-0.024
G3 X1.5731 Y3.844 I-0.0241 J-0.0414
G3 X1.549 Y3.8374 I0.0002 J-0.0483
G3 X1.5319 Y3.8203 I0.0244 J-0.0415
G3 X1.5253 Y3.7962 I0.0416 J-0.0242
G3 X1.5272 Y3.7833 I0.0455 J-0.0001
G3 X1.5323 Y3.7719 I0.0428 J0.0124
G3 X1.5324 Y3.7717 I0.0034 J0.0021
G3 X1.5389 Y3.7637 I0.0559 J0.0384
G1 Y3.6304
G1 X1.5062
G3 X1.498 Y3.6369 I-0.0526 J-0.0582
G3 X1.4979 Y3.637 I-0.0023 J-0.0033
G3 X1.4861 Y3.6422 I-0.0225 J-0.0353
G3 X1.4731 Y3.644 I-0.0134 J-0.0485
G3 X1.449 Y3.6374 I0.0003 J-0.0486
G3 X1.4319 Y3.6203 I0.0241 J-0.0413
G3 X1.4253 Y3.5962 I0.0415 J-0.0242
G3 X1.4286 Y3.5791 I0.0454 J-0.0001
G3 X1.4378 Y3.5649 I0.0398 J0.0155
G3 Y3.5648 I0.0029 J0.0028
G3 X1.4441 Y3.5594 I0.0412 J0.0422
G3 X1.4489 Y3.5561 I0.0608 J0.0832
G1 Y3.5204
G1 X1.0674
G3 X1.0669 I0.0 J-0.004
G1 X1.0655 Y3.5202
G3 X1.0651 Y3.5201 I0.0005 J-0.004
G3 X1.0628 Y3.5191 I0.0019 J-0.008
G3 X1.0609 Y3.5177 I0.0045 J-0.0078
G1 X1.0062 Y3.4631
G1 X1.0016 Y3.4584
G3 X1.0013 Y3.458 I0.0028 J-0.0028
G1 X1.0004 Y3.4569
G3 X1.0002 Y3.4566 I0.0032 J-0.0024
G3 X0.9992 Y3.4543 I0.0072 J-0.0044
G3 X0.9989 Y3.4519 I0.0083 J-0.0023
G1 Y0.4557
G1 X0.8353 Y0.2921
G1 X0.8333 Y0.2927
G3 X0.8331 Y0.2928 I-0.0011 J-0.0039
G3 X0.8283 Y0.2936 I-0.0099 J-0.0409
G3 X0.8231 Y0.294 I-0.0045 J-0.0307
G3 X0.799 Y0.2874 I0.0001 J-0.0479
G3 X0.7819 Y0.2703 I0.0244 J-0.0415
G3 X0.7753 Y0.2462 I0.0414 J-0.0242
G3 X0.7801 Y0.2257 I0.0468 J0.0001
G3 X0.793 Y0.2099 I0.04 J0.0194
G3 X0.7973 Y0.207 I0.0269 J0.0362
G3 X0.8019 Y0.2046 I0.0232 J0.0391
G3 X0.8109 Y0.2009 I0.0503 J0.1073
G1 X0.811 Y0.2008
G1 X0.8144 Y0.1996
G3 X0.8145 I0.0013 J0.0038
G3 X0.8189 Y0.1987 I0.0066 J0.0207
G3 X0.823 Y0.1984 I0.0057 J0.0541
G3 X0.8275 Y0.1987 I0.0005 J0.0257
G3 X0.8294 Y0.199 I-0.0214 J0.1325
G3 X0.8297 Y0.1991 I-0.0007 J0.0039
G1 X0.8315 Y0.1995
G3 X0.8336 Y0.2002 I-0.0051 J0.0193
G3 X0.8355 Y0.2009 I-0.0067 J0.0208
G1 X0.8398 Y0.2027
G3 X0.8399 I-0.0015 J0.0037
G1 X0.8443 Y0.2046
G3 X0.8532 Y0.2099 I-0.0195 J0.0434
G1 X0.8533
G3 X0.8661 Y0.2257 I-0.0273 J0.0353
G3 X0.8709 Y0.2462 I-0.042 J0.0206
G3 Y0.2463 I-0.004 J0.0
G3 X0.8707 Y0.2502 I-0.0702 J-0.0017
G3 Y0.2503 I-0.004 J-0.0003
G3 X0.8701 Y0.2542 I-0.0488 J-0.0051
G3 X0.8698 Y0.2558 I-0.0455 J-0.0082
G1 X0.9281 Y0.3141
G2 X0.9921 Y0.3782 I153.6237 J-153.5669
G3 X1.0343 Y0.4203 I-22.7991 J22.8441
G1 X1.0731
G1 X1.0799 Y0.4135
G3 X1.0803 Y0.4132 I0.0028 J0.0028
G1 X1.0814 Y0.4123
G3 X1.0817 Y0.4121 I0.0025 J0.0032
G3 X1.0841 Y0.4111 I0.0044 J0.0071
G3 X1.0865 Y0.4108 I0.0023 J0.0084
G1 X1.16
G3 X1.1605 I0.0 J0.004
G1 X1.1618 Y0.411
G3 X1.1623 Y0.4111 I-0.0005 J0.004
G3 X1.1646 Y0.412 I-0.002 J0.0082
G3 X1.1665 Y0.4135 I-0.0042 J0.0074
G1 X1.1817 Y0.4287
G3 X1.1821 Y0.4291 I-0.0028 J0.0028
G1 X1.1829 Y0.4302
G3 X1.1831 Y0.4305 I-0.0032 J0.0024
G3 X1.1841 Y0.4328 I-0.0073 J0.0044
G3 X1.1844 Y0.4352 I-0.0083 J0.0023
G1 Y0.4568
G3 Y0.4573 I-0.004 J0.0
G1 X1.1842 Y0.4586
G3 X1.1841 Y0.4591 I-0.004 J-0.0005
G3 X1.1832 Y0.4614 I-0.0081 J-0.002
G3 X1.1817 Y0.4633 I-0.0076 J-0.0044
G1 X1.1665 Y0.4785
G3 X1.1661 Y0.4788 I-0.0028 J-0.0028
G1 X1.165 Y0.4797
G3 X1.1646 Y0.4799 I-0.0024 J-0.0032
G3 X1.1623 Y0.4809 I-0.0044 J-0.0072
G3 X1.1599 Y0.4812 I-0.0023 J-0.0083
G1 X1.0864
G3 X1.0859 I0.0 J-0.004
G1 X1.0845 Y0.481
G3 X1.0841 Y0.4809 I0.0005 J-0.004
G3 X1.0818 Y0.48 I0.0019 J-0.0081
G3 X1.0799 Y0.4785 I0.0044 J-0.0077
G1 X1.0718 Y0.4704
G1 X1.049
G1 Y1.1703
G1 X1.0731
G1 X1.0799 Y1.1635
G3 X1.0803 Y1.1632 I0.0028 J0.0028
G1 X1.0814 Y1.1623
G3 X1.0817 Y1.1621 I0.0024 J0.0032
G3 X1.0841 Y1.1611 I0.0044 J0.0071
G3 X1.0865 Y1.1608 I0.0023 J0.0084
G1 X1.16
G3 X1.1605 I0.0 J0.004
G1 X1.1618 Y1.161
G3 X1.1623 Y1.1611 I-0.0005 J0.004
G3 X1.1646 Y1.162 I-0.002 J0.0082
G3 X1.1665 Y1.1635 I-0.0042 J0.0074
G1 X1.1817 Y1.1787
G3 X1.1821 Y1.1791 I-0.0028 J0.0028
G1 X1.1829 Y1.1802
G3 X1.1831 Y1.1806 I-0.0032 J0.0024
G3 X1.1841 Y1.1829 I-0.0074 J0.0044
G3 X1.1844 Y1.1853 I-0.0082 J0.0023
G1 Y1.2068
G3 Y1.2073 I-0.004 J0.0
G1 X1.1842 Y1.2087
G3 X1.1841 Y1.2091 I-0.004 J-0.0005
G3 X1.1832 Y1.2114 I-0.008 J-0.0019
G3 X1.1817 Y1.2133 I-0.0078 J-0.0045
G1 X1.1665 Y1.2285
G3 X1.1661 Y1.2289 I-0.0028 J-0.0028
G1 X1.165 Y1.2297
G3 X1.1646 Y1.23 I-0.0024 J-0.0032
G3 X1.1623 Y1.2309 I-0.0043 J-0.0071
G3 X1.1599 Y1.2312 I-0.0023 J-0.0085
G1 X1.0864
G3 X1.0859 I0.0 J-0.004
G1 X1.0846 Y1.231
G3 X1.0841 Y1.2309 I0.0005 J-0.004
G3 X1.0818 Y1.23 I0.002 J-0.0082
G3 X1.0799 Y1.2285 I0.0043 J-0.0076
G1 X1.0718 Y1.2204
G1 X1.049
G1 Y1.6703
G1 X1.0887
G1 X1.0903 Y1.6683
G1 X1.0904 Y1.6682
G3 X1.0937 Y1.6647 I0.043 J0.0375
G1 X1.0938
G3 X1.1019 Y1.6588 I0.0264 J0.0281
G3 X1.102 I0.0019 J0.0035
G3 X1.111 Y1.655 I0.0329 J0.0661
G1 X1.1144 Y1.6538
G3 X1.1145 I0.0013 J0.0038
G3 X1.1189 Y1.6529 I0.0065 J0.0206
G3 X1.123 Y1.6526 I0.0058 J0.0556
G3 X1.1275 Y1.6529 I0.0005 J0.026
G3 X1.1294 Y1.6532 I-0.0174 J0.1102
G3 X1.1297 Y1.6533 I-0.0007 J0.0039
G1 X1.1315 Y1.6537
G3 X1.1336 Y1.6544 I-0.0051 J0.0192
G3 X1.1355 Y1.6551 I-0.0066 J0.0206
G3 X1.1433 Y1.6586 I-0.0461 J0.1135
G3 X1.1512 Y1.6635 I-0.0169 J0.0362
G3 X1.1625 Y1.6778 I-0.0254 J0.0316
G3 X1.1667 Y1.6962 I-0.0386 J0.0185
G3 X1.1607 Y1.7182 I-0.0435 J0.0
G3 X1.1451 Y1.7338 I-0.0377 J-0.022
G3 X1.1231 Y1.7398 I-0.0221 J-0.0381
G3 X1.1081 Y1.7371 I0.0002 J-0.0442
G3 X1.0953 Y1.7296 I0.0133 J-0.0374
G3 X1.0952 Y1.7295 I0.0026 J-0.003
G3 X1.0902 Y1.7243 I0.0388 J-0.0417
G3 Y1.7242 I0.0031 J-0.0026
G3 X1.0872 Y1.7204 I0.1631 J-0.129
G1 X1.049
G1 Y2.1203
G1 X1.0732
G1 X1.0799 Y2.1136
G3 X1.0803 Y2.1132 I0.0028 J0.0028
G1 X1.0814 Y2.1124
G3 X1.0818 Y2.1121 I0.0024 J0.0032
G3 X1.0841 Y2.1112 I0.0043 J0.0072
G3 X1.0865 Y2.1109 I0.0023 J0.0085
G1 X1.16
G3 X1.1605 I0.0 J0.004
G1 X1.1618 Y2.1111
G3 X1.1623 Y2.1112 I-0.0005 J0.004
G3 X1.1646 Y2.1121 I-0.002 J0.0082
G3 X1.1665 Y2.1136 I-0.0042 J0.0075
G1 X1.1817 Y2.1288
G3 X1.182 Y2.1292 I-0.0028 J0.0028
G1 X1.1829 Y2.1303
G3 X1.1831 Y2.1306 I-0.0032 J0.0024
G3 X1.1841 Y2.1329 I-0.0072 J0.0044
G3 X1.1844 Y2.1353 I-0.0083 J0.0023
G1 Y2.1569
G3 Y2.1574 I-0.004 J0.0
G1 X1.1842 Y2.1587
G3 X1.1841 Y2.1591 I-0.004 J-0.0005
G3 X1.1831 Y2.1615 I-0.008 J-0.0019
G3 X1.1817 Y2.1634 I-0.0079 J-0.0045
G1 X1.1665 Y2.1786
G3 X1.1661 Y2.1789 I-0.0028 J-0.0028
G1 X1.165 Y2.1798
G3 X1.1647 Y2.18 I-0.0024 J-0.0032
G3 X1.1623 Y2.181 I-0.0043 J-0.007
G3 X1.1599 Y2.1813 I-0.0023 J-0.0085
G1 X1.0864
G3 X1.0859 I0.0 J-0.004
G1 X1.0846 Y2.1811
G3 X1.0841 Y2.181 I0.0005 J-0.004
G3 X1.0818 Y2.1801 I0.002 J-0.0082
G3 X1.0799 Y2.1786 I0.0043 J-0.0075
G1 X1.0717 Y2.1704
G1 X1.049
G1 Y2.7703
G1 X1.0732
G1 X1.0799 Y2.7636
G3 X1.0803 Y2.7633 I0.0028 J0.0028
G1 X1.0814 Y2.7624
G3 X1.0817 Y2.7622 I0.0024 J0.0032
G3 X1.0841 Y2.7612 I0.0044 J0.0071
G3 X1.0865 Y2.7609 I0.0023 J0.0084
G1 X1.16
G3 X1.1605 I0.0 J0.004
G1 X1.1618 Y2.7611
G3 X1.1623 Y2.7612 I-0.0005 J0.004
G3 X1.1646 Y2.7621 I-0.002 J0.0082
G3 X1.1665 Y2.7636 I-0.0042 J0.0074
G1 X1.1817 Y2.7788
G3 X1.1821 Y2.7792 I-0.0028 J0.0028
G1 X1.1829 Y2.7803
G3 X1.1831 Y2.7807 I-0.0032 J0.0024
G3 X1.1841 Y2.7829 I-0.0074 J0.0044
G3 X1.1844 Y2.7854 I-0.0082 J0.0023
G1 Y2.8069
G3 Y2.8074 I-0.004 J0.0
G1 X1.1842 Y2.8088
G3 X1.1841 Y2.8092 I-0.004 J-0.0005
G3 X1.1832 Y2.8115 I-0.0081 J-0.002
G3 X1.1824 Y2.8126 I-0.0076 J-0.0044
G0 Z0.125
G0 X1.1326 Y2.5887
G1 F10.0 Z-0.004
G3 F25.0 X1.1231 Y2.5898 I-0.0095 J-0.0426
G3 X1.1011 Y2.5838 I0.0002 J-0.0441
G3 X1.0855 Y2.5682 I0.0223 J-0.038
G3 X1.0795 Y2.5462 I0.038 J-0.0221
G3 X1.0823 Y2.5313 I0.042 J0.0
G3 X1.0898 Y2.5187 I0.0372 J0.0138
G3 X1.0944 Y2.5143 I0.0304 J0.0276
G3 X1.0989 Y2.5109 I0.043 J0.0513
G1 Y2.4813
G1 X1.0864
G3 X1.0859 I0.0 J-0.004
G1 X1.0846 Y2.4811
G3 X1.0841 Y2.481 I0.0005 J-0.004
G3 X1.0818 Y2.4801 I0.002 J-0.0082
G3 X1.0799 Y2.4786 I0.0043 J-0.0075
G1 X1.0647 Y2.4634
G3 X1.0644 Y2.463 I0.0028 J-0.0028
G1 X1.0635 Y2.4619
G3 X1.0633 Y2.4616 I0.0032 J-0.0024
G3 X1.0623 Y2.4592 I0.0071 J-0.0043
G3 X1.062 Y2.4568 I0.0084 J-0.0023
G1 Y2.4353
G3 Y2.4348 I0.004 J0.0
G1 X1.0622 Y2.4335
G3 X1.0623 Y2.433 I0.004 J0.0005
G3 X1.0632 Y2.4307 I0.0082 J0.002
G3 X1.0647 Y2.4288 I0.0075 J0.0043
G1 X1.0799 Y2.4136
G3 X1.0803 Y2.4132 I0.0028 J0.0028
G1 X1.0814 Y2.4124
G3 X1.0817 Y2.4122 I0.0024 J0.0032
G3 X1.0841 Y2.4112 I0.0044 J0.0071
G3 X1.0865 Y2.4109 I0.0023 J0.0084
G1 X1.16
G3 X1.1605 I0.0 J0.004
G1 X1.1618 Y2.4111
G3 X1.1623 Y2.4112 I-0.0005 J0.004
G3 X1.1646 Y2.4121 I-0.002 J0.0082
G3 X1.1665 Y2.4136 I-0.0042 J0.0074
G1 X1.1817 Y2.4288
G3 X1.1821 Y2.4292 I-0.0028 J0.0028
G1 X1.1829 Y2.4303
G3 X1.1831 Y2.4307 I-0.0032 J0.0024
G3 X1.1841 Y2.4329 I-0.0073 J0.0044
G3 X1.1844 Y2.4354 I-0.0083 J0.0023
G1 Y2.4569
G3 Y2.4574 I-0.004 J0.0
G1 X1.1842 Y2.4587
G3 X1.1841 Y2.4592 I-0.004 J-0.0005
G3 X1.1831 Y2.4615 I-0.0081 J-0.002
G3 X1.1817 Y2.4634 I-0.0076 J-0.0044
G1 X1.1665 Y2.4786
G3 X1.1661 Y2.4789 I-0.0028 J-0.0028
G1 X1.165 Y2.4798
G3 X1.1647 Y2.48 I-0.0024 J-0.0032
G3 X1.1623 Y2.481 I-0.0043 J-0.007
G3 X1.1599 Y2.4813 I-0.0023 J-0.0085
G1 X1.149
G1 Y2.5119
G3 X1.1525 Y2.5148 I-0.0423 J0.0538
G3 X1.1574 Y2.5198 I-0.0227 J0.0275
G3 X1.1642 Y2.532 I-0.0311 J0.0255
G3 X1.1667 Y2.5462 I-0.0405 J0.0143
G3 X1.1607 Y2.5682 I-0.0436 J0.0
G3 X1.1451 Y2.5838 I-0.0375 J-0.0218
G3 X1.1326 Y2.5887 I-0.022 J-0.0377
G0 Z0.125
G0 X0.949
G1 F10.0 Z-0.004
G1 F25.0 Y3.4519
G3 Y3.4524 I-0.004 J0.0
G1 X0.9488 Y3.4538
G3 X0.9487 Y3.4542 I-0.004 J-0.0005
G3 X0.9477 Y3.4565 I-0.0081 J-0.002
G3 X0.9463 Y3.4584 I-0.0076 J-0.0044
G1 X0.887 Y3.5177
G3 X0.8866 Y3.518 I-0.0028 J-0.0028
G1 X0.8855 Y3.5189
G3 X0.8852 Y3.5191 I-0.0024 J-0.0032
G3 X0.8829 Y3.5201 I-0.0044 J-0.0073
G3 X0.8805 Y3.5204 I-0.0023 J-0.0083
G1 X0.599
G1 Y3.5571
G3 X0.6034 Y3.5604 I-0.0693 J0.098
G3 X0.6094 Y3.5659 I-0.025 J0.0336
G3 X0.6178 Y3.5797 I-0.0317 J0.0288
G3 X0.6209 Y3.5962 I-0.044 J0.0167
G3 X0.6144 Y3.6203 I-0.048 J-0.0001
G3 X0.5972 Y3.6374 I-0.0413 J-0.0241
G3 X0.5731 Y3.644 I-0.0242 J-0.0415
G3 X0.5601 Y3.6421 I-0.0003 J-0.0457
G3 X0.5484 Y3.637 I0.0129 J-0.0451
G3 X0.5483 Y3.6369 I0.0021 J-0.0034
G3 X0.54 Y3.6304 I0.039 J-0.0582
G1 X0.5073
G1 Y3.7638
G1 X0.5101 Y3.7668
G1 Y3.7669
G3 X0.5139 Y3.7718 I-0.0375 J0.0324
G3 X0.5191 Y3.7833 I-0.034 J0.0222
G3 X0.5209 Y3.7962 I-0.0461 J0.0131
G3 X0.5144 Y3.8203 I-0.0482 J-0.0002
G3 X0.4972 Y3.8374 I-0.0412 J-0.024
G3 X0.4731 Y3.844 I-0.0241 J-0.0414
G3 X0.449 Y3.8374 I0.0002 J-0.0483
G3 X0.4319 Y3.8203 I0.0244 J-0.0415
G3 X0.4253 Y3.7962 I0.0416 J-0.0242
G3 X0.4272 Y3.7833 I0.0454 J-0.0001
G3 X0.4323 Y3.7719 I0.043 J0.0125
G1 X0.4324 Y3.7718
G3 X0.4361 Y3.7669 I0.0401 J0.0266
G3 X0.4389 Y3.7637 I0.05 J0.0411
G1 Y3.5858
G3 X0.439 Y3.5853 I0.004 J0.0
G1 X0.4391 Y3.584
G3 X0.4392 Y3.5835 I0.004 J0.0005
G3 X0.4401 Y3.5812 I0.0083 J0.002
G3 X0.4416 Y3.5793 I0.0075 J0.0042
G1 X0.4563 Y3.5647
G3 X0.4566 Y3.5643 I0.0028 J0.0028
G1 X0.4577 Y3.5635
G3 X0.4581 Y3.5633 I0.0024 J0.0032
G3 X0.4604 Y3.5623 I0.0044 J0.0072
G3 X0.4628 Y3.562 I0.0023 J0.0084
G1 X0.5407
G1 X0.5429 Y3.5601
G3 X0.543 Y3.56 I0.0026 J0.003
G3 X0.5469 Y3.5572 I0.0251 J0.0309
G3 X0.5489 Y3.556 I0.0263 J0.0406
G1 Y3.4888
G3 X0.549 Y3.4883 I0.004 J0.0
G1 X0.5491 Y3.4869
G3 X0.5492 Y3.4865 I0.004 J0.0005
G3 X0.5501 Y3.4842 I0.0082 J0.002
G3 X0.5516 Y3.4823 I0.0075 J0.0042
G1 X0.5609 Y3.473
G3 X0.5613 Y3.4727 I0.0028 J0.0028
G1 X0.5624 Y3.4718
G3 X0.5627 Y3.4716 I0.0024 J0.0032
G3 X0.565 Y3.4706 I0.0044 J0.0074
G3 X0.5674 Y3.4703 I0.0023 J0.0082
G1 X0.8636
G1 X0.8989 Y3.435
G1 Y3.1204
G1 X0.8747
G1 X0.8665 Y3.1287
G3 X0.8661 Y3.129 I-0.0028 J-0.0028
G1 X0.865 Y3.1298
G3 X0.8647 Y3.1301 I-0.0024 J-0.0032
G3 X0.8624 Y3.131 I-0.0044 J-0.0072
G3 X0.8599 Y3.1314 I-0.0023 J-0.0084
G1 X0.7864
G3 X0.7859 Y3.1313 I0.0 J-0.004
G1 X0.7846 Y3.1311
G3 X0.7842 I0.0005 J-0.004
G3 X0.7818 Y3.1301 I0.0019 J-0.008
G3 X0.7799 Y3.1286 I0.0045 J-0.0078
G1 X0.7647 Y3.1134
G3 X0.7644 Y3.113 I0.0028 J-0.0028
G1 X0.7635 Y3.112
G3 X0.7633 Y3.1116 I0.0032 J-0.0024
G3 X0.7623 Y3.1093 I0.007 J-0.0043
G3 X0.762 Y3.1069 I0.0085 J-0.0023
G1 Y3.0854
G3 Y3.0848 I0.004 J0.0
G1 X0.7622 Y3.0835
G3 X0.7623 Y3.0831 I0.004 J0.0005
G3 X0.7632 Y3.0808 I0.0082 J0.002
G3 X0.7647 Y3.0788 I0.0074 J0.0042
G1 X0.7799 Y3.0636
G3 X0.7803 Y3.0633 I0.0028 J0.0028
G1 X0.7814 Y3.0624
G3 X0.7818 Y3.0622 I0.0024 J0.0032
G3 X0.784 Y3.0612 I0.0044 J0.0074
G3 X0.7865 Y3.0609 I0.0023 J0.0083
G1 X0.86
G3 X0.8605 Y3.061 I0.0 J0.004
G1 X0.8619 Y3.0611
G3 X0.8623 Y3.0612 I-0.0005 J0.004
G3 X0.8646 Y3.0622 I-0.002 J0.0081
G3 X0.8665 Y3.0636 I-0.0044 J0.0076
G1 X0.8732 Y3.0703
G1 X0.8989
G1 Y2.4704
G1 X0.8747
G1 X0.8665 Y2.4786
G3 X0.8661 Y2.4789 I-0.0028 J-0.0028
G1 X0.865 Y2.4798
G3 X0.8647 Y2.48 I-0.0024 J-0.0032
G3 X0.8623 Y2.481 I-0.0043 J-0.007
G3 X0.8599 Y2.4813 I-0.0023 J-0.0085
G1 X0.7864
G3 X0.7859 I0.0 J-0.004
G1 X0.7846 Y2.4811
G3 X0.7841 Y2.481 I0.0005 J-0.004
G3 X0.7818 Y2.4801 I0.002 J-0.0081
G3 X0.7799 Y2.4786 I0.0043 J-0.0076
G1 X0.7647 Y2.4634
G3 X0.7644 Y2.463 I0.0028 J-0.0028
G1 X0.7635 Y2.4619
G3 X0.7633 Y2.4616 I0.0032 J-0.0024
G3 X0.7623 Y2.4592 I0.0071 J-0.0043
G3 X0.762 Y2.4568 I0.0084 J-0.0023
G1 Y2.4353
G3 Y2.4348 I0.004 J0.0
G1 X0.7622 Y2.4335
G3 X0.7623 Y2.433 I0.004 J0.0005
G3 X0.7632 Y2.4307 I0.0082 J0.002
G3 X0.7647 Y2.4288 I0.0076 J0.0043
G1 X0.7799 Y2.4136
G3 X0.7803 Y2.4132 I0.0028 J0.0028
G1 X0.7814 Y2.4124
G3 X0.7818 Y2.4122 I0.0024 J0.0032
G3 X0.7841 Y2.4112 I0.0044 J0.0072
G3 X0.7865 Y2.4109 I0.0023 J0.0084
G1 X0.86
G3 X0.8605 I0.0 J0.004
G1 X0.8618 Y2.4111
G3 X0.8623 Y2.4112 I-0.0005 J0.004
G3 X0.8646 Y2.4121 I-0.002 J0.0082
G3 X0.8665 Y2.4136 I-0.0042 J0.0074
G1 X0.8732 Y2.4203
G1 X0.8989
G1 Y1.9204
G1 X0.7256
G1 X0.7183 Y1.9277
G3 X0.7179 Y1.928 I-0.0028 J-0.0028
G1 X0.7169 Y1.9289
G3 X0.7165 Y1.9291 I-0.0024 J-0.0032
G3 X0.7142 Y1.9301 I-0.0044 J-0.0072
G3 X0.7118 Y1.9304 I-0.0023 J-0.0084
G1 X0.6383
G3 X0.6378 Y1.9303 I0.0 J-0.004
G1 X0.6364 Y1.9302
G3 X0.636 Y1.9301 I0.0005 J-0.004
G3 X0.6337 Y1.9291 I0.0019 J-0.0081
G3 X0.6318 Y1.9277 I0.0044 J-0.0077
G1 X0.6165 Y1.9124
G3 X0.6162 Y1.9121 I0.0028 J-0.0028
G1 X0.6154 Y1.911
G3 X0.6151 Y1.9106 I0.0032 J-0.0024
G3 X0.6142 Y1.9083 I0.0071 J-0.0043
G3 X0.6138 Y1.9059 I0.0084 J-0.0023
G1 Y1.8844
G3 X0.6139 Y1.8839 I0.004 J0.0
G1 X0.6141 Y1.8825
G3 Y1.8821 I0.004 J0.0005
G3 X0.6151 Y1.8798 I0.0082 J0.002
G3 X0.6166 Y1.8779 I0.0075 J0.0043
G1 X0.6318 Y1.8627
G3 X0.6322 Y1.8623 I0.0028 J0.0028
G1 X0.6333 Y1.8615
G3 X0.6336 Y1.8612 I0.0024 J0.0032
G3 X0.6359 Y1.8603 I0.0044 J0.0071
G3 X0.6383 Y1.86 I0.0023 J0.0084
G1 X0.7118
G3 X0.7123 I0.0 J0.004
G1 X0.7137 Y1.8602
G3 X0.7141 Y1.8603 I-0.0005 J0.004
G3 X0.7164 Y1.8612 I-0.002 J0.0082
G3 X0.7184 Y1.8627 I-0.0042 J0.0074
G1 X0.726 Y1.8703
G1 X0.8989
G1 Y1.8311
G3 X0.897 Y1.8325 I-0.0401 J-0.0509
G3 X0.8969 Y1.8326 I-0.0024 J-0.0032
G3 X0.8857 Y1.8379 I-0.0226 J-0.0332
G3 X0.8732 Y1.8398 I-0.013 J-0.0437
G1 X0.8731
G3 X0.8511 Y1.8338 I0.0001 J-0.0439
G3 X0.8355 Y1.8182 I0.0222 J-0.0378
G3 X0.8295 Y1.7962 I0.0382 J-0.0221
G3 X0.8337 Y1.7779 I0.043 J0.0002
G3 X0.845 Y1.7635 I0.0363 J0.017
G1 X0.8451
G3 X0.8489 Y1.7608 I0.025 J0.0323
G3 X0.8529 Y1.7586 I0.024 J0.0389
G3 X0.8608 Y1.7551 I0.0683 J0.1418
G3 X0.861 Y1.755 I0.0015 J0.0037
G1 X0.8644 Y1.7538
G3 X0.8645 I0.0013 J0.0038
G3 X0.8689 Y1.7529 I0.0065 J0.0206
G3 X0.873 Y1.7526 I0.0058 J0.0556
G3 X0.8775 Y1.7529 I0.0005 J0.026
G3 X0.8794 Y1.7532 I-0.0174 J0.1102
G3 X0.8797 Y1.7533 I-0.0007 J0.0039
G1 X0.8815 Y1.7537
G3 X0.8836 Y1.7544 I-0.0051 J0.0192
G3 X0.8854 Y1.7551 I-0.0066 J0.0206
G3 X0.8927 Y1.758 I-0.0238 J0.0703
G1 X0.8928
G3 X0.8989 Y1.7618 I-0.0161 J0.0331
G1 Y1.4204
G1 X0.8746
G1 X0.8665 Y1.4286
G3 X0.8661 Y1.4289 I-0.0028 J-0.0028
G1 X0.865 Y1.4297
G3 X0.8647 Y1.43 I-0.0024 J-0.0032
G3 X0.8623 Y1.431 I-0.0043 J-0.007
G3 X0.8599 Y1.4313 I-0.0023 J-0.0085
G1 X0.7864
G3 X0.7859 Y1.4312 I0.0 J-0.004
G1 X0.7846 Y1.431
G3 X0.7841 I0.0005 J-0.004
G3 X0.7818 Y1.43 I0.002 J-0.0081
G3 X0.7799 Y1.4285 I0.0043 J-0.0076
G1 X0.7647 Y1.4133
G3 X0.7644 Y1.4129 I0.0028 J-0.0028
G1 X0.7635 Y1.4119
G3 X0.7633 Y1.4115 I0.0032 J-0.0024
G3 X0.7623 Y1.4092 I0.0071 J-0.0044
G3 X0.762 Y1.4068 I0.0084 J-0.0023
G1 Y1.3853
G3 Y1.3848 I0.004 J0.0
G1 X0.7622 Y1.3834
G3 X0.7623 Y1.383 I0.004 J0.0005
G3 X0.7632 Y1.3807 I0.0082 J0.002
G3 X0.7647 Y1.3787 I0.0074 J0.0042
G1 X0.7799 Y1.3635
G3 X0.7803 Y1.3632 I0.0028 J0.0028
G1 X0.7814 Y1.3624
G3 X0.7818 Y1.3621 I0.0024 J0.0032
G3 X0.7841 Y1.3612 I0.0044 J0.0072
G3 X0.7865 Y1.3608 I0.0023 J0.0084
G1 X0.86
G3 X0.8605 Y1.3609 I0.0 J0.004
G1 X0.8618 Y1.3611
G3 X0.8623 I-0.0005 J0.004
G3 X0.8646 Y1.3621 I-0.002 J0.0082
G3 X0.8665 Y1.3636 I-0.0042 J0.0074
G1 X0.8733 Y1.3703
G1 X0.8989
G1 Y0.7704
G1 X0.8746
G1 X0.8665 Y0.7785
G3 X0.8661 Y0.7789 I-0.0028 J-0.0028
G1 X0.865 Y0.7797
G3 X0.8647 Y0.7799 I-0.0024 J-0.0032
G3 X0.8623 Y0.7809 I-0.0043 J-0.0071
G3 X0.8599 Y0.7812 I-0.0023 J-0.0085
G1 X0.7864
G3 X0.7859 I0.0 J-0.004
G1 X0.7846 Y0.781
G3 X0.7842 Y0.7809 I0.0005 J-0.004
G3 X0.7818 Y0.78 I0.002 J-0.0082
G3 X0.7799 Y0.7785 I0.0043 J-0.0076
G1 X0.7647 Y0.7633
G3 X0.7644 Y0.7629 I0.0028 J-0.0028
G1 X0.7635 Y0.7618
G3 X0.7633 Y0.7615 I0.0032 J-0.0024
G3 X0.7623 Y0.7591 I0.007 J-0.0043
G3 X0.762 Y0.7568 I0.0086 J-0.0023
G1 Y0.7352
G3 Y0.7347 I0.004 J0.0
G1 X0.7622 Y0.7334
G3 X0.7623 Y0.7329 I0.004 J0.0005
G3 X0.7632 Y0.7306 I0.0083 J0.002
G3 X0.7647 Y0.7287 I0.0074 J0.0042
G1 X0.7799 Y0.7135
G3 X0.7803 Y0.7132 I0.0028 J0.0028
G1 X0.7814 Y0.7123
G3 X0.7818 Y0.7121 I0.0024 J0.0032
G3 X0.7841 Y0.7111 I0.0044 J0.0072
G3 X0.7865 Y0.7108 I0.0023 J0.0084
G1 X0.86
G3 X0.8605 I0.0 J0.004
G1 X0.8618 Y0.711
G3 X0.8623 Y0.7111 I-0.0005 J0.004
G3 X0.8646 Y0.712 I-0.002 J0.0082
G3 X0.8665 Y0.7135 I-0.0042 J0.0074
G1 X0.8733 Y0.7203
G1 X0.9305
G3 X0.931 Y0.7204 I0.0 J0.004
G1 X0.9324 Y0.7205
G3 X0.9328 Y0.7206 I-0.0005 J0.004
G3 X0.9351 Y0.7216 I-0.002 J0.0082
G3 X0.937 Y0.7231 I-0.0042 J0.0074
G1 X0.9463 Y0.7323
G3 X0.9466 Y0.7327 I-0.0028 J0.0028
G1 X0.9475 Y0.7338
G3 X0.9477 Y0.7341 I-0.0032 J0.0024
G3 X0.9487 Y0.7364 I-0.0072 J0.0044
G3 X0.949 Y0.7388 I-0.0083 J0.0023
G1 Y2.5887
G0 Z0.125
G0 X0.8666 Y2.6267
G1 F10.0 Z-0.004
G3 F25.0 X0.8709 Y2.6462 I-0.0423 J0.0195
G3 X0.8644 Y2.6703 I-0.048 J-0.0001
G3 X0.857 Y2.68 I-0.0412 J-0.0236
G3 X0.8471 Y2.6875 I-0.03 J-0.0293
G3 X0.847 I-0.0019 J-0.0035
G3 X0.8353 Y2.6918 I-0.0228 J-0.0447
G1 X0.8352
G3 X0.8237 Y2.6939 I-0.04 J-0.1852
G3 X0.8227 I-0.0006 J-0.004
G3 X0.8145 Y2.6929 I0.0125 J-0.1282
G3 X0.8059 Y2.6907 I0.007 J-0.0458
G3 X0.7913 Y2.6816 I0.0139 J-0.0385
G1 X0.7912 Y2.6815
G3 X0.7833 Y2.6717 I0.0456 J-0.045
G3 X0.7824 Y2.6704 I0.0184 J-0.0136
G1 X0.659
G3 X0.656 Y2.6742 I-0.0881 J-0.0656
G3 X0.651 Y2.6796 I-0.0313 J-0.0246
G1 X0.6509
G3 X0.6382 Y2.6871 I-0.0269 J-0.0313
G3 X0.6231 Y2.6898 I-0.015 J-0.0402
G3 X0.6011 Y2.6838 I0.0001 J-0.044
G3 X0.5855 Y2.6682 I0.022 J-0.0377
G3 X0.5795 Y2.6462 I0.0382 J-0.0221
G3 X0.5837 Y2.6279 I0.0429 J0.0002
G3 X0.595 Y2.6135 I0.0364 J0.017
G1 X0.5951
G3 X0.5989 Y2.6108 I0.0251 J0.0323
G3 X0.6029 Y2.6086 I0.0242 J0.0393
G3 X0.6108 Y2.6051 I0.0706 J0.1468
G3 X0.611 Y2.605 I0.0015 J0.0037
G1 X0.6144 Y2.6038
G3 X0.6145 I0.0013 J0.0038
G3 X0.6189 Y2.6029 I0.0067 J0.0212
G3 X0.623 Y2.6026 I0.0055 J0.0509
G3 X0.6275 Y2.6029 I0.0005 J0.0261
G3 X0.6294 Y2.6032 I-0.0167 J0.1052
G3 X0.6297 Y2.6033 I-0.0007 J0.0039
G1 X0.6315 Y2.6037
G3 X0.6336 Y2.6044 I-0.0052 J0.02
G3 X0.6354 Y2.6051 I-0.0068 J0.0215
G1 X0.6397 Y2.6067
G3 X0.6398 I-0.0014 J0.0037
G3 X0.6442 Y2.6088 I-0.0236 J0.0572
G1 X0.6443
G3 X0.6525 Y2.6147 I-0.0179 J0.0336
G3 X0.6576 Y2.6203 I-0.0398 J0.0417
G1 X0.7835
G3 X0.7858 Y2.6173 I0.0584 J0.0424
G3 X0.7897 Y2.6128 I0.0567 J0.0455
G3 X0.7998 Y2.6053 I0.0291 J0.0288
G3 X0.8055 Y2.6028 I0.022 J0.0413
G1 X0.8109 Y2.6008
G1 X0.811
G1 X0.8144 Y2.5996
G3 X0.8145 I0.0013 J0.0038
G3 X0.8189 Y2.5987 I0.0066 J0.0209
G3 X0.823 Y2.5984 I0.0057 J0.0535
G3 X0.8275 Y2.5987 I0.0005 J0.0258
G3 X0.8294 Y2.599 I-0.0249 J0.1538
G3 X0.8297 Y2.5991 I-0.0007 J0.0039
G1 X0.8315 Y2.5995
G3 X0.8336 Y2.6002 I-0.0051 J0.0195
G3 X0.8355 Y2.6009 I-0.0067 J0.0209
G3 X0.8443 Y2.6046 I-0.0896 J0.2256
G3 X0.8532 Y2.6099 I-0.0183 J0.0415
G1 X0.8533
G3 X0.8661 Y2.6257 I-0.027 J0.035
G3 X0.8666 Y2.6267 I-0.0418 J0.0205
G0 Z0.125
G0 X0.8602 Y2.7609
G1 F10.0 Z-0.004
G3 F25.0 X0.8605 I-0.0002 J0.004
G1 X0.8618 Y2.7611
G3 X0.8623 Y2.7612 I-0.0005 J0.004
G3 X0.8646 Y2.7621 I-0.002 J0.0082
G3 X0.8665 Y2.7636 I-0.0042 J0.0074
G1 X0.8817 Y2.7788
G3 X0.8821 Y2.7792 I-0.0028 J0.0028
G1 X0.8829 Y2.7803
G3 X0.8831 Y2.7807 I-0.0032 J0.0024
G3 X0.8841 Y2.7829 I-0.0074 J0.0044
G3 X0.8844 Y2.7854 I-0.0082 J0.0023
G1 Y2.8069
G3 Y2.8074 I-0.004 J0.0
G1 X0.8842 Y2.8088
G3 X0.8841 Y2.8092 I-0.004 J-0.0005
G3 X0.8832 Y2.8115 I-0.0081 J-0.002
G3 X0.8817 Y2.8134 I-0.0076 J-0.0044
G1 X0.8665 Y2.8286
G3 X0.8661 Y2.829 I-0.0028 J-0.0028
G1 X0.865 Y2.8298
G3 X0.8647 Y2.8301 I-0.0024 J-0.0032
G3 X0.8623 Y2.831 I-0.0043 J-0.0071
G3 X0.8599 Y2.8313 I-0.0023 J-0.0085
G1 X0.7864
G3 X0.7859 I0.0 J-0.004
G1 X0.7846 Y2.8311
G3 X0.7842 Y2.831 I0.0005 J-0.004
G3 X0.7818 Y2.8301 I0.002 J-0.0082
G3 X0.7799 Y2.8286 I0.0043 J-0.0076
G1 X0.7717 Y2.8204
G1 X0.6638
G1 X0.6618 Y2.8235
G3 X0.6617 Y2.8236 I-0.0033 J-0.0022
G1 X0.6605 Y2.8252
G3 X0.655 Y2.8316 I-0.0396 J-0.0287
G1 X0.6549
G3 X0.6404 Y2.8407 I-0.0304 J-0.0325
G3 X0.6231 Y2.844 I-0.0176 J-0.0454
G3 X0.6058 Y2.8407 I0.0 J-0.0469
G3 X0.5913 Y2.8316 I0.0158 J-0.0414
G1 X0.5912
G3 X0.5857 Y2.8252 I0.0363 J-0.0371
G3 X0.5823 Y2.8204 I0.0705 J-0.0536
G1 X0.5343
G1 X0.437 Y2.9177
G3 X0.4366 Y2.918 I-0.0028 J-0.0028
G1 X0.4355 Y2.9189
G3 X0.4352 Y2.9191 I-0.0024 J-0.0032
G3 X0.4329 Y2.9201 I-0.0044 J-0.0072
G3 X0.4305 Y2.9204 I-0.0023 J-0.0084
G1 X0.3638
G1 X0.3617 Y2.9235
G3 Y2.9236 I-0.0033 J-0.0022
G1 X0.3605 Y2.9252
G3 X0.355 Y2.9316 I-0.0389 J-0.0281
G1 X0.3549
G3 X0.3404 Y2.9407 I-0.0298 J-0.0316
G3 X0.3231 Y2.944 I-0.0174 J-0.0447
G3 X0.299 Y2.9374 I0.0002 J-0.0484
G3 X0.2819 Y2.9203 I0.0242 J-0.0413
G3 X0.2753 Y2.8962 I0.0418 J-0.0242
G3 X0.2801 Y2.8757 I0.0467 J0.0001
G3 X0.293 Y2.8599 I0.04 J0.0193
G1 Y2.8598
G3 X0.2973 Y2.857 I0.027 J0.0363
G3 X0.3019 Y2.8546 I0.0234 J0.0394
G3 X0.3109 Y2.8508 I0.0511 J0.1092
G1 X0.311
G1 X0.3144 Y2.8496
G3 X0.3145 I0.0013 J0.0038
G3 X0.3189 Y2.8487 I0.0065 J0.0208
G3 X0.323 Y2.8484 I0.0058 J0.0558
G3 X0.3275 Y2.8487 I0.0005 J0.026
G3 X0.3294 Y2.849 I-0.0258 J0.1609
G3 X0.3297 Y2.8491 I-0.0007 J0.0039
G1 X0.3314 Y2.8495
G1 X0.3315
G3 X0.3336 Y2.8502 I-0.005 J0.0193
G3 X0.3353 Y2.8508 I-0.0066 J0.0207
G3 X0.3408 Y2.8528 I-0.0207 J0.0659
G3 X0.3464 Y2.8553 I-0.0229 J0.0584
G1 X0.3465 Y2.8554
G3 X0.3565 Y2.8628 I-0.0201 J0.0377
G3 X0.3605 Y2.8674 I-0.0301 J0.0304
G1 X0.3627 Y2.8703
G1 X0.4136
G1 X0.5109 Y2.773
G3 X0.5113 Y2.7727 I0.0028 J0.0028
G1 X0.5124 Y2.7718
G3 X0.5127 Y2.7716 I0.0024 J0.0032
G3 X0.515 Y2.7706 I0.0044 J0.0072
G3 X0.5174 Y2.7703 I0.0023 J0.0084
G1 X0.5835
G3 X0.5858 Y2.7673 I0.059 J0.0429
G3 X0.5897 Y2.7628 I0.0573 J0.0461
G1 X0.5898
G3 X0.5998 Y2.7554 I0.029 J0.0287
G3 X0.6055 Y2.7528 I0.0221 J0.0416
G1 X0.6109 Y2.7508
G1 X0.611
G1 X0.6144 Y2.7496
G3 X0.6145 I0.0013 J0.0038
G3 X0.6189 Y2.7487 I0.0066 J0.0209
G3 X0.623 Y2.7484 I0.0056 J0.0528
G3 X0.6275 Y2.7487 I0.0005 J0.026
G3 X0.6294 Y2.749 I-0.0182 J0.1138
G3 X0.6297 Y2.7491 I-0.0007 J0.0039
G1 X0.6315 Y2.7495
G3 X0.6336 Y2.7502 I-0.0052 J0.0197
G3 X0.6353 Y2.7508 I-0.0068 J0.0212
G3 X0.6408 Y2.7528 I-0.0212 J0.0676
G3 X0.6464 Y2.7553 I-0.0237 J0.0601
G1 X0.6465 Y2.7554
G3 X0.6565 Y2.7628 I-0.0199 J0.0373
G3 X0.6605 Y2.7674 I-0.0307 J0.0309
G1 X0.6627 Y2.7703
G1 X0.7732
G1 X0.7799 Y2.7636
G3 X0.7803 Y2.7633 I0.0028 J0.0028
G1 X0.7814 Y2.7624
G3 X0.7818 Y2.7622 I0.0024 J0.0032
G3 X0.7841 Y2.7612 I0.0044 J0.0072
G3 X0.7865 Y2.7609 I0.0023 J0.0084
G1 X0.86
G3 X0.8602 I0.0 J0.004
G0 Z0.125
G0 X0.86 Y2.8609
G1 F10.0 Z-0.004
G3 F25.0 X0.8605 Y2.861 I0.0 J0.004
G1 X0.8618 Y2.8611
G3 X0.8623 Y2.8612 I-0.0005 J0.004
G3 X0.8646 Y2.8621 I-0.002 J0.0082
G3 X0.8665 Y2.8636 I-0.0042 J0.0075
G1 X0.8817 Y2.8788
G3 X0.8821 Y2.8792 I-0.0028 J0.0028
G1 X0.8829 Y2.8803
G3 X0.8831 Y2.8807 I-0.0032 J0.0024
G3 X0.8841 Y2.883 I-0.0072 J0.0044
G3 X0.8844 Y2.8854 I-0.0084 J0.0023
G1 Y2.9069
G3 Y2.9074 I-0.004 J0.0
G1 X0.8842 Y2.9088
G3 X0.8841 Y2.9092 I-0.004 J-0.0005
G3 X0.8832 Y2.9115 I-0.0081 J-0.002
G3 X0.8817 Y2.9134 I-0.0076 J-0.0044
G1 X0.8665 Y2.9286
G3 X0.8661 Y2.929 I-0.0028 J-0.0028
G1 X0.865 Y2.9298
G3 X0.8647 Y2.9301 I-0.0024 J-0.0032
G3 X0.8624 Y2.931 I-0.0044 J-0.0072
G3 X0.8599 Y2.9313 I-0.0023 J-0.0084
G1 X0.7864
G3 X0.7859 I0.0 J-0.004
G1 X0.7846 Y2.9311
G3 X0.7841 Y2.931 I0.0005 J-0.004
G3 X0.7818 Y2.9301 I0.0019 J-0.0081
G3 X0.7799 Y2.9286 I0.0045 J-0.0078
G1 X0.7717 Y2.9204
G1 X0.664
G3 X0.6605 Y2.9256 I-0.0596 J-0.0365
G1 X0.6604 Y2.9257
G3 X0.6542 Y2.9322 I-0.0326 J-0.0249
G1 X0.6541 Y2.9323
G3 X0.649 Y2.936 I-0.0508 J-0.0637
G1 Y3.2825
G1 X0.7326
G3 X0.7389 Y3.2745 I0.0667 J0.0461
G3 X0.739 Y3.2744 I0.003 J0.0027
G3 X0.7493 Y3.2666 I0.0291 J0.0276
G3 X0.7553 Y3.2639 I0.0234 J0.0437
G1 X0.7609 Y3.2618
G1 X0.761
G1 X0.7644 Y3.2606
G3 X0.7645 I0.0013 J0.0038
G3 X0.7689 Y3.2597 I0.0066 J0.0207
G3 X0.773 Y3.2594 I0.0057 J0.0547
G1 X0.7731
G3 X0.7775 Y3.2597 I0.0005 J0.026
G3 X0.7794 Y3.26 I-0.0196 J0.1234
G3 X0.7797 Y3.2601 I-0.0007 J0.0039
G1 X0.7815 Y3.2605
G3 X0.7836 Y3.2612 I-0.005 J0.0191
G3 X0.7855 Y3.2619 I-0.0066 J0.0204
G1 X0.792 Y3.2646
G3 X0.7922 I-0.0015 J0.0037
G1 X0.7943 Y3.2656
G1 X0.7944
G3 X0.8032 Y3.2708 I-0.0234 J0.0501
G3 X0.8162 Y3.2868 I-0.0248 J0.0333
G3 Y3.2869 I-0.0036 J0.0017
G3 X0.8193 Y3.2968 I-0.0499 J0.0209
G1 Y3.2969
G3 X0.8209 Y3.3067 I-0.1082 J0.0223
G3 Y3.3077 I-0.004 J0.0004
G3 X0.8187 Y3.3193 I-0.1238 J-0.0167
G3 X0.8145 Y3.3311 I-0.046 J-0.01
G3 X0.8144 Y3.3312 I-0.0035 J-0.0019
G3 X0.7972 Y3.3484 I-0.0393 J-0.022
G3 X0.7731 Y3.355 I-0.0242 J-0.0417
G3 X0.7563 Y3.3518 I-0.0001 J-0.0465
G3 X0.742 Y3.3433 I0.0158 J-0.0422
G3 X0.7419 Y3.3432 I0.0027 J-0.003
G3 X0.7365 Y3.3371 I0.0389 J-0.0409
G3 X0.733 Y3.3325 I0.094 J-0.0734
G1 X0.6174
G3 X0.6169 I0.0 J-0.004
G1 X0.6155 Y3.3323
G3 X0.6151 I0.0005 J-0.004
G3 X0.6128 Y3.3313 I0.002 J-0.0081
G3 X0.6109 Y3.3298 I0.0044 J-0.0076
G1 X0.6016 Y3.3206
G3 X0.6013 Y3.3202 I0.0028 J-0.0028
G1 X0.6004 Y3.3191
G3 X0.6002 Y3.3187 I0.0032 J-0.0024
G3 X0.5992 Y3.3164 I0.0072 J-0.0044
G3 X0.5989 Y3.314 I0.0084 J-0.0023
G1 Y2.9369
G1 X0.5958 Y2.9348
G3 X0.5957 Y2.9347 I0.0022 J-0.0033
G1 X0.5941 Y2.9336
G3 X0.5877 Y2.928 I0.0288 J-0.0396
G3 X0.5786 Y2.9135 I0.0326 J-0.0305
G3 X0.5753 Y2.8962 I0.0439 J-0.0173
G3 X0.5801 Y2.8757 I0.0474 J0.0003
G3 X0.593 Y2.8599 I0.0395 J0.0189
G3 X0.5931 Y2.8598 I0.0024 J0.0032
G3 X0.6019 Y2.8546 I0.0334 J0.0467
G3 X0.6109 Y2.8508 I0.0502 J0.1068
G1 X0.611
G1 X0.6144 Y2.8496
G3 X0.6145 I0.0013 J0.0038
G3 X0.6189 Y2.8487 I0.0065 J0.0208
G3 X0.623 Y2.8484 I0.0057 J0.0551
G3 X0.6275 Y2.8487 I0.0005 J0.0261
G3 X0.6294 Y2.849 I-0.0187 J0.1182
G3 X0.6297 Y2.8491 I-0.0007 J0.0039
G1 X0.6315 Y2.8495
G3 X0.6336 Y2.8502 I-0.0051 J0.0195
G3 X0.6353 Y2.8508 I-0.0067 J0.021
G3 X0.6408 Y2.8528 I-0.0208 J0.0662
G3 X0.6464 Y2.8553 I-0.0231 J0.0588
G1 X0.6465 Y2.8554
G3 X0.6565 Y2.8628 I-0.0201 J0.0376
G3 X0.6605 Y2.8674 I-0.0303 J0.0305
G1 X0.6627 Y2.8703
G1 X0.7732
G1 X0.7799 Y2.8636
G3 X0.7803 Y2.8632 I0.0028 J0.0028
G1 X0.7814 Y2.8624
G3 X0.7818 Y2.8622 I0.0024 J0.0032
G3 X0.7841 Y2.8612 I0.0044 J0.0072
G3 X0.7865 Y2.8609 I0.0023 J0.0084
G1 X0.86
G0 Z0.125
G0 Y2.9609
G1 F10.0 Z-0.004
G3 F25.0 X0.8605 Y2.961 I0.0 J0.004
G1 X0.8618 Y2.9611
G3 X0.8623 Y2.9612 I-0.0005 J0.004
G3 X0.8646 Y2.9622 I-0.002 J0.0082
G3 X0.8665 Y2.9636 I-0.0042 J0.0074
G1 X0.8817 Y2.9789
G3 X0.8821 Y2.9792 I-0.0028 J0.0028
G1 X0.8829 Y2.9803
G3 X0.8831 Y2.9807 I-0.0032 J0.0024
G3 X0.8841 Y2.983 I-0.0072 J0.0044
G3 X0.8844 Y2.9854 I-0.0083 J0.0023
G1 Y3.0069
G3 Y3.0074 I-0.004 J0.0
G1 X0.8842 Y3.0088
G3 X0.8841 Y3.0092 I-0.004 J-0.0005
G3 X0.8832 Y3.0115 I-0.0081 J-0.002
G3 X0.8817 Y3.0134 I-0.0076 J-0.0044
G1 X0.8665 Y3.0286
G3 X0.8661 Y3.029 I-0.0028 J-0.0028
G1 X0.865 Y3.0298
G3 X0.8647 Y3.0301 I-0.0024 J-0.0032
G3 X0.8624 Y3.031 I-0.0044 J-0.0072
G3 X0.8599 Y3.0313 I-0.0023 J-0.0084
G1 X0.7864
G3 X0.7859 I0.0 J-0.004
G1 X0.7846 Y3.0311
G3 X0.7841 Y3.031 I0.0005 J-0.004
G3 X0.7818 Y3.0301 I0.0019 J-0.0081
G3 X0.7799 Y3.0286 I0.0045 J-0.0078
G1 X0.7717 Y3.0204
G1 X0.749
G1 Y3.1703
G1 X0.7887
G1 X0.7903 Y3.1683
G3 X0.7904 Y3.1682 I0.0031 J0.0026
G3 X0.7937 Y3.1647 I0.0452 J0.0395
G1 X0.7938
G3 X0.8019 Y3.1588 I0.0261 J0.0277
G1 X0.802
G3 X0.8087 Y3.1559 I0.0306 J0.061
G3 X0.811 Y3.155 I0.0131 J0.0319
G1 X0.8144 Y3.1538
G3 X0.8145 I0.0013 J0.0038
G3 X0.8189 Y3.1529 I0.0066 J0.0209
G3 X0.823 Y3.1526 I0.0057 J0.0541
G3 X0.8275 Y3.1529 I0.0005 J0.026
G3 X0.8294 Y3.1532 I-0.0232 J0.1453
G3 X0.8296 Y3.1533 I-0.0007 J0.0039
G1 X0.8314 Y3.1537
G1 X0.8315
G3 X0.8335 Y3.1544 I-0.005 J0.0193
G3 X0.8355 Y3.1551 I-0.0066 J0.0207
G3 X0.8433 Y3.1586 I-0.0455 J0.112
G3 X0.8512 Y3.1635 I-0.0169 J0.0361
G3 X0.8625 Y3.1778 I-0.0254 J0.0317
G3 X0.8667 Y3.1962 I-0.0386 J0.0185
G3 X0.8607 Y3.2182 I-0.0434 J0.0
G3 X0.8451 Y3.2338 I-0.0377 J-0.0221
G3 X0.8231 Y3.2398 I-0.0221 J-0.0381
G3 X0.8081 Y3.2371 I0.0002 J-0.0442
G3 X0.7953 Y3.2296 I0.0133 J-0.0374
G3 X0.7952 Y3.2295 I0.0026 J-0.003
G3 X0.7902 Y3.2243 I0.0388 J-0.0417
G3 Y3.2242 I0.0031 J-0.0026
G3 X0.7872 Y3.2204 I0.1631 J-0.129
G1 X0.7174
G3 X0.7169 I0.0 J-0.004
G1 X0.7155 Y3.2202
G3 X0.7151 Y3.2201 I0.0005 J-0.004
G3 X0.7128 Y3.2192 I0.002 J-0.0082
G3 X0.7109 Y3.2177 I0.0042 J-0.0074
G1 X0.7016 Y3.2084
G3 X0.7013 Y3.208 I0.0028 J-0.0028
G1 X0.7004 Y3.2069
G3 X0.7002 Y3.2066 I0.0032 J-0.0024
G3 X0.6992 Y3.2043 I0.0072 J-0.0044
G3 X0.6989 Y3.2019 I0.0083 J-0.0023
G1 Y2.9888
G3 Y2.9883 I0.004 J0.0
G1 X0.6991 Y2.9869
G3 X0.6992 Y2.9865 I0.004 J0.0005
G3 X0.7002 Y2.9842 I0.0081 J0.002
G3 X0.7016 Y2.9823 I0.0076 J0.0044
G1 X0.7109 Y2.973
G3 X0.7113 Y2.9727 I0.0028 J0.0028
G1 X0.7124 Y2.9718
G3 X0.7127 Y2.9716 I0.0024 J0.0032
G3 X0.715 Y2.9706 I0.0043 J0.0071
G3 X0.7174 Y2.9703 I0.0023 J0.0085
G1 X0.7732
G1 X0.7799 Y2.9636
G3 X0.7803 Y2.9633 I0.0028 J0.0028
G1 X0.7814 Y2.9624
G3 X0.7818 Y2.9622 I0.0024 J0.0032
G3 X0.7841 Y2.9612 I0.0044 J0.0072
G3 X0.7865 Y2.9609 I0.0023 J0.0084
G1 X0.86
G0 Z0.125
G0 X0.3678 Y2.812
G1 F10.0 Z-0.004
G3 F25.0 X0.3644 Y2.8201 I-0.0447 J-0.0135
G3 Y2.8202 I-0.0035 J-0.0019
G3 X0.3472 Y2.8375 I-0.0394 J-0.0221
G3 X0.3231 Y2.844 I-0.0242 J-0.0418
G3 X0.299 Y2.8374 I0.0002 J-0.0485
G3 X0.2819 Y2.8203 I0.0239 J-0.041
G3 X0.2753 Y2.7962 I0.0414 J-0.0242
G3 X0.2786 Y2.7791 I0.0454 J-0.0001
G3 X0.2878 Y2.7649 I0.0398 J0.0155
G3 Y2.7648 I0.0029 J0.0028
G3 X0.2942 Y2.7594 I0.0409 J0.0419
G3 X0.2982 Y2.7566 I0.0597 J0.0816
G1 X0.2867 Y2.7451
G3 X0.2864 Y2.7447 I0.0028 J-0.0028
G1 X0.2855 Y2.7436
G3 X0.2853 Y2.7432 I0.0032 J-0.0024
G3 X0.2843 Y2.7409 I0.0071 J-0.0044
G3 X0.284 Y2.7385 I0.0084 J-0.0023
G1 Y2.6537
G3 Y2.6532 I0.004 J0.0
G1 X0.2842 Y2.6518
G3 X0.2843 Y2.6514 I0.004 J0.0005
G3 X0.2852 Y2.6491 I0.0083 J0.002
G3 X0.2867 Y2.6471 I0.0074 J0.0042
G1 X0.3043 Y2.6296
G3 X0.3047 Y2.6292 I0.0028 J0.0028
G1 X0.3058 Y2.6284
G3 X0.3061 Y2.6282 I0.0024 J0.0032
G3 X0.3084 Y2.6272 I0.0044 J0.0072
G3 X0.3108 Y2.6269 I0.0023 J0.0084
G1 X0.3356
G3 X0.3362 I0.0 J0.004
G1 X0.3375 Y2.6271
G3 X0.3379 Y2.6272 I-0.0005 J0.004
G3 X0.3403 Y2.6281 I-0.002 J0.0082
G3 X0.3422 Y2.6296 I-0.0043 J0.0075
G1 X0.3597 Y2.6472
G3 X0.3601 Y2.6476 I-0.0028 J0.0028
G1 X0.3609 Y2.6487
G3 X0.3611 Y2.649 I-0.0032 J0.0024
G3 X0.3621 Y2.6513 I-0.0072 J0.0044
G3 X0.3624 Y2.6537 I-0.0083 J0.0023
G1 Y2.7385
G3 Y2.7391 I-0.004 J0.0
G1 X0.3622 Y2.7404
G3 X0.3621 Y2.7408 I-0.004 J-0.0005
G3 X0.3612 Y2.7432 I-0.008 J-0.0019
G3 X0.3597 Y2.7451 I-0.0079 J-0.0045
G1 X0.349 Y2.7558
G1 Y2.7572
G1 X0.3503 Y2.7581
G3 X0.3504 Y2.7582 I-0.0023 J0.0033
G1 X0.3534 Y2.7604
G3 X0.3593 Y2.7658 I-0.0317 J0.0411
G1 X0.3594
G3 X0.3679 Y2.7798 I-0.0293 J0.0274
G3 X0.3699 Y2.788 I-0.0468 J0.0158
G3 X0.3709 Y2.7958 I-0.1599 J0.0242
G3 Y2.7967 I-0.004 J0.0004
G3 X0.3687 Y2.8084 I-0.1241 J-0.0167
G3 X0.3678 Y2.812 I-0.0456 J-0.0099
G0 Z0.125
G0 X0.5138 Y2.4697
G1 F10.0 Z-0.004
G3 F25.0 X0.5128 Y2.4692 I0.0033 J-0.0077
G3 X0.5109 Y2.4677 I0.0043 J-0.0076
G1 X0.5016 Y2.4584
G3 X0.5013 Y2.458 I0.0028 J-0.0028
G1 X0.5004 Y2.4569
G3 X0.5002 Y2.4566 I0.0032 J-0.0024
G3 X0.4992 Y2.4543 I0.0073 J-0.0044
G3 X0.4989 Y2.4519 I0.0083 J-0.0023
G1 Y2.3704
G1 X0.3638
G1 X0.3618 Y2.3735
G3 X0.3617 Y2.3736 I-0.0033 J-0.0022
G1 X0.3605 Y2.3752
G3 X0.355 Y2.3816 I-0.0388 J-0.028
G1 X0.3549
G3 X0.3404 Y2.3907 I-0.0299 J-0.0317
G3 X0.3231 Y2.394 I-0.0174 J-0.0447
G3 X0.299 Y2.3874 I0.0002 J-0.0484
G3 X0.2819 Y2.3703 I0.0242 J-0.0413
G3 X0.2753 Y2.3462 I0.0418 J-0.0242
G3 X0.2801 Y2.3257 I0.0467 J0.0001
G3 X0.293 Y2.3099 I0.04 J0.0194
G1 Y2.3098
G3 X0.2973 Y2.307 I0.0269 J0.0362
G3 X0.3019 Y2.3046 I0.0233 J0.0391
G3 X0.3109 Y2.3009 I0.0504 J0.1076
G1 X0.311 Y2.3008
G1 X0.3144 Y2.2996
G3 X0.3145 I0.0013 J0.0038
G3 X0.3189 Y2.2987 I0.0065 J0.0206
G3 X0.323 Y2.2984 I0.0058 J0.0564
G3 X0.3275 Y2.2987 I0.0005 J0.0259
G3 X0.3294 Y2.299 I-0.0224 J0.14
G3 X0.3297 Y2.2991 I-0.0007 J0.0039
G1 X0.3315 Y2.2995
G3 X0.3336 Y2.3002 I-0.005 J0.0191
G3 X0.3353 Y2.3008 I-0.0067 J0.0206
G3 X0.3408 Y2.3028 I-0.0211 J0.0673
G3 X0.3464 Y2.3053 I-0.0234 J0.0595
G1 X0.3465 Y2.3054
G3 X0.3565 Y2.3128 I-0.0199 J0.0374
G3 X0.3605 Y2.3174 I-0.0305 J0.0307
G1 X0.3627 Y2.3203
G1 X0.4989
G1 Y2.0388
G3 Y2.0383 I0.004 J0.0
G1 X0.4991 Y2.0369
G3 X0.4992 Y2.0365 I0.004 J0.0005
G3 X0.5002 Y2.0342 I0.008 J0.0019
G3 X0.5016 Y2.0323 I0.0077 J0.0045
G1 X0.5109 Y2.023
G3 X0.5113 Y2.0227 I0.0028 J0.0028
G1 X0.5124 Y2.0218
G3 X0.5127 Y2.0216 I0.0024 J0.0032
G3 X0.515 Y2.0206 I0.0044 J0.0072
G3 X0.5174 Y2.0203 I0.0023 J0.0084
G1 X0.8305
G3 X0.831 I0.0 J0.004
G1 X0.8324 Y2.0205
G3 X0.8328 Y2.0206 I-0.0005 J0.004
G3 X0.8351 Y2.0216 I-0.002 J0.0081
G3 X0.837 Y2.023 I-0.0044 J0.0076
G1 X0.8463 Y2.0323
G3 X0.8466 Y2.0327 I-0.0028 J0.0028
G1 X0.8475 Y2.0338
G3 X0.8477 Y2.0341 I-0.0032 J0.0024
G3 X0.8487 Y2.0364 I-0.0074 J0.0044
G3 X0.849 Y2.0388 I-0.0082 J0.0023
G1 Y2.1109
G1 X0.86
G3 X0.8605 I0.0 J0.004
G1 X0.8618 Y2.1111
G3 X0.8623 Y2.1112 I-0.0005 J0.004
G3 X0.8646 Y2.1121 I-0.002 J0.0082
G3 X0.8665 Y2.1136 I-0.0042 J0.0075
G1 X0.8817 Y2.1288
G3 X0.8821 Y2.1292 I-0.0028 J0.0028
G1 X0.8829 Y2.1303
G3 X0.8831 Y2.1306 I-0.0032 J0.0024
G3 X0.8841 Y2.1329 I-0.0072 J0.0044
G3 X0.8844 Y2.1353 I-0.0083 J0.0023
G1 Y2.1569
G3 Y2.1574 I-0.004 J0.0
G1 X0.8842 Y2.1587
G3 X0.8841 Y2.1591 I-0.004 J-0.0005
G3 X0.8832 Y2.1615 I-0.008 J-0.0019
G3 X0.8817 Y2.1634 I-0.0079 J-0.0045
G1 X0.8665 Y2.1786
G3 X0.8661 Y2.1789 I-0.0028 J-0.0028
G1 X0.865 Y2.1798
G3 X0.8647 Y2.18 I-0.0024 J-0.0032
G3 X0.8623 Y2.181 I-0.0043 J-0.007
G3 X0.8599 Y2.1813 I-0.0023 J-0.0085
G1 X0.7864
G3 X0.7859 I0.0 J-0.004
G1 X0.7846 Y2.1811
G3 X0.7841 Y2.181 I0.0005 J-0.004
G3 X0.7818 Y2.1801 I0.002 J-0.0081
G3 X0.7799 Y2.1786 I0.0043 J-0.0076
G1 X0.7647 Y2.1634
G3 X0.7643 Y2.163 I0.0028 J-0.0028
G1 X0.7635 Y2.1619
G3 X0.7633 Y2.1615 I0.0032 J-0.0024
G3 X0.7623 Y2.1592 I0.0073 J-0.0044
G3 X0.762 Y2.1568 I0.0083 J-0.0023
G1 Y2.1353
G3 Y2.1348 I0.004 J0.0
G1 X0.7622 Y2.1334
G3 X0.7623 Y2.133 I0.004 J0.0005
G3 X0.7632 Y2.1307 I0.0082 J0.002
G3 X0.7647 Y2.1288 I0.0075 J0.0043
G1 X0.7799 Y2.1136
G3 X0.7803 Y2.1132 I0.0028 J0.0028
G1 X0.7814 Y2.1124
G3 X0.7818 Y2.1121 I0.0024 J0.0032
G3 X0.7841 Y2.1112 I0.0044 J0.0072
G3 X0.7865 Y2.1109 I0.0023 J0.0084
G1 X0.7989
G1 Y2.0704
G1 X0.549
G1 Y2.4203
G1 X0.5887
G1 X0.5903 Y2.4183
G1 X0.5904 Y2.4182
G3 X0.5937 Y2.4147 I0.043 J0.0375
G1 X0.5938
G3 X0.6019 Y2.4088 I0.0264 J0.0281
G3 X0.602 I0.0019 J0.0035
G3 X0.611 Y2.405 I0.0329 J0.0661
G1 X0.6144 Y2.4038
G3 X0.6145 I0.0013 J0.0038
G3 X0.6189 Y2.4029 I0.0065 J0.0206
G3 X0.623 Y2.4026 I0.0058 J0.0556
G3 X0.6275 Y2.4029 I0.0005 J0.026
G3 X0.6294 Y2.4032 I-0.0174 J0.1102
G3 X0.6297 Y2.4033 I-0.0007 J0.0039
G1 X0.6315 Y2.4037
G3 X0.6336 Y2.4044 I-0.0051 J0.0192
G3 X0.6355 Y2.4051 I-0.0066 J0.0206
G3 X0.6433 Y2.4086 I-0.0461 J0.1135
G3 X0.6512 Y2.4135 I-0.0169 J0.0362
G3 X0.6625 Y2.4278 I-0.0254 J0.0316
G3 X0.6667 Y2.4462 I-0.0386 J0.0185
G3 X0.6607 Y2.4682 I-0.0435 J0.0
G3 X0.6451 Y2.4838 I-0.0377 J-0.022
G3 X0.6231 Y2.4898 I-0.0221 J-0.0381
G3 X0.6081 Y2.4871 I0.0002 J-0.0442
G3 X0.5953 Y2.4796 I0.0133 J-0.0374
G3 X0.5952 Y2.4795 I0.0026 J-0.003
G3 X0.5902 Y2.4743 I0.0388 J-0.0417
G3 Y2.4742 I0.0031 J-0.0026
G3 X0.5872 Y2.4704 I0.1631 J-0.129
G1 X0.5174
G3 X0.5169 I0.0 J-0.004
G1 X0.5155 Y2.4702
G3 X0.5151 Y2.4701 I0.0005 J-0.004
G3 X0.5138 Y2.4697 I0.002 J-0.0082
G0 Z0.125
G0 X0.5915 Y2.382
G1 F10.0 Z-0.004
G3 F25.0 X0.5819 Y2.3703 I0.0321 J-0.0362
G3 X0.5753 Y2.3462 I0.0415 J-0.0242
G3 X0.5786 Y2.3291 I0.0455 J-0.0001
G3 X0.5878 Y2.3149 I0.0398 J0.0155
G3 Y2.3148 I0.0029 J0.0028
G3 X0.5941 Y2.3094 I0.0413 J0.0423
G3 X0.5989 Y2.3061 I0.0611 J0.0835
G1 Y2.2869
G1 X0.5958 Y2.2848
G3 X0.5957 Y2.2847 I0.0022 J-0.0033
G1 X0.5941 Y2.2836
G3 X0.5877 Y2.278 I0.029 J-0.0399
G3 X0.5786 Y2.2635 I0.0324 J-0.0303
G3 X0.5753 Y2.2462 I0.045 J-0.0175
G3 X0.5786 Y2.2291 I0.0472 J0.0003
G3 X0.5877 Y2.2149 I0.0406 J0.016
G3 X0.5878 Y2.2148 I0.0029 J0.0028
G3 X0.5941 Y2.2094 I0.04 J0.0408
G3 X0.5989 Y2.2062 I0.0596 J0.0814
G1 Y2.1869
G1 X0.5958 Y2.1848
G3 X0.5957 Y2.1847 I0.0022 J-0.0033
G1 X0.5941 Y2.1836
G3 X0.5877 Y2.178 I0.0288 J-0.0396
G3 X0.5786 Y2.1635 I0.0326 J-0.0305
G3 X0.5753 Y2.1462 I0.0439 J-0.0173
G3 X0.5801 Y2.1257 I0.0474 J0.0003
G3 X0.593 Y2.1099 I0.0395 J0.0189
G3 X0.5931 Y2.1098 I0.0024 J0.0032
G3 X0.6019 Y2.1046 I0.0334 J0.0467
G3 X0.6109 Y2.1008 I0.0502 J0.1068
G1 X0.611
G1 X0.6144 Y2.0996
G3 X0.6145 I0.0013 J0.0038
G3 X0.6189 Y2.0987 I0.0066 J0.0209
G3 X0.623 Y2.0984 I0.0056 J0.0528
G3 X0.6275 Y2.0987 I0.0005 J0.026
G3 X0.6294 Y2.099 I-0.0182 J0.1138
G3 X0.6297 Y2.0991 I-0.0007 J0.0039
G1 X0.6315 Y2.0995
G3 X0.6336 Y2.1002 I-0.0052 J0.0197
G3 X0.6355 Y2.1009 I-0.0068 J0.0212
G3 X0.6443 Y2.1046 I-0.0942 J0.2364
G3 X0.6532 Y2.1099 I-0.0185 J0.0417
G1 X0.6533
G3 X0.6661 Y2.1257 I-0.0273 J0.0352
G3 X0.6709 Y2.1462 I-0.0417 J0.0205
G3 X0.6679 Y2.1628 I-0.0489 J-0.0004
G3 X0.6595 Y2.177 I-0.0421 J-0.0155
G3 X0.6594 Y2.1771 I-0.003 J-0.0026
G3 X0.6535 Y2.1825 I-0.0423 J-0.0396
G3 X0.649 Y2.1859 I-0.0878 J-0.1111
G1 Y2.2071
G1 X0.6503 Y2.2079
G3 X0.6535 Y2.2102 I-0.03 J0.045
G1 Y2.2103
G3 X0.6594 Y2.2158 I-0.0268 J0.0338
G3 X0.6595 Y2.2159 I-0.003 J0.0026
G3 X0.6628 Y2.2203 I-0.0759 J0.0609
G1 X0.7732
G1 X0.7799 Y2.2136
G3 X0.7803 Y2.2132 I0.0028 J0.0028
G1 X0.7814 Y2.2124
G3 X0.7818 Y2.2122 I0.0024 J0.0032
G3 X0.7841 Y2.2112 I0.0044 J0.0072
G3 X0.7865 Y2.2109 I0.0023 J0.0084
G1 X0.86
G3 X0.8605 I0.0 J0.004
G1 X0.8618 Y2.2111
G3 X0.8623 Y2.2112 I-0.0005 J0.004
G3 X0.8646 Y2.2121 I-0.002 J0.0082
G3 X0.8665 Y2.2136 I-0.0042 J0.0074
G1 X0.8817 Y2.2288
G3 X0.8821 Y2.2292 I-0.0028 J0.0028
G1 X0.8829 Y2.2303
G3 X0.8831 Y2.2306 I-0.0032 J0.0024
G3 X0.8841 Y2.2329 I-0.0072 J0.0044
G3 X0.8844 Y2.2353 I-0.0084 J0.0023
G1 Y2.2569
G3 Y2.2574 I-0.004 J0.0
G1 X0.8842 Y2.2587
G3 X0.8841 Y2.2592 I-0.004 J-0.0005
G3 X0.8832 Y2.2615 I-0.0082 J-0.002
G3 X0.8817 Y2.2634 I-0.0076 J-0.0043
G1 X0.8665 Y2.2786
G3 X0.8661 Y2.279 I-0.0028 J-0.0028
G1 X0.865 Y2.2798
G3 X0.8647 Y2.28 I-0.0024 J-0.0032
G3 X0.8623 Y2.281 I-0.0043 J-0.0071
G3 X0.86 Y2.2813 I-0.0023 J-0.0085
G1 X0.7864
G3 X0.7859 I0.0 J-0.004
G1 X0.7846 Y2.2811
G3 X0.7842 Y2.281 I0.0005 J-0.004
G3 X0.7818 Y2.2801 I0.002 J-0.0082
G3 X0.7799 Y2.2786 I0.0043 J-0.0077
G1 X0.7717 Y2.2704
G1 X0.664
G3 X0.6605 Y2.2756 I-0.0595 J-0.0365
G1 X0.6604 Y2.2757
G3 X0.6542 Y2.2822 I-0.0326 J-0.025
G1 X0.6541 Y2.2823
G3 X0.649 Y2.286 I-0.0522 J-0.0655
G1 Y2.3071
G3 X0.6534 Y2.3104 I-0.0695 J0.0984
G3 X0.6594 Y2.3159 I-0.0249 J0.0336
G3 X0.6679 Y2.3297 I-0.0317 J0.0288
G3 X0.6709 Y2.3462 I-0.044 J0.0167
G3 X0.6644 Y2.3703 I-0.0479 J-0.0001
G3 X0.6472 Y2.3874 I-0.0411 J-0.024
G3 X0.6231 Y2.394 I-0.0241 J-0.0414
G3 X0.599 Y2.3874 I0.0002 J-0.0483
G3 X0.5915 Y2.382 I0.0245 J-0.0417
G0 Z0.125
G0 X0.4468 Y2.2579
G1 F10.0 Z-0.004
G3 F25.0 X0.4463 Y2.2584 I-0.0067 J-0.0057
G1 X0.437 Y2.2677
G3 X0.4367 Y2.268 I-0.0028 J-0.0028
G1 X0.4356 Y2.2689
G3 X0.4352 Y2.2691 I-0.0025 J-0.0032
G3 X0.4329 Y2.2701 I-0.0044 J-0.0071
G3 X0.4305 Y2.2704 I-0.0023 J-0.0084
G1 X0.3638
G1 X0.3617 Y2.2735
G3 Y2.2736 I-0.0033 J-0.0022
G1 X0.3605 Y2.2752
G3 X0.355 Y2.2816 I-0.0387 J-0.0279
G1 X0.3549
G3 X0.3404 Y2.2907 I-0.0299 J-0.0317
G3 X0.3231 Y2.294 I-0.0174 J-0.0447
G3 X0.299 Y2.2874 I0.0002 J-0.0484
G3 X0.2819 Y2.2703 I0.0242 J-0.0413
G3 X0.2753 Y2.2462 I0.0418 J-0.0242
G3 X0.2801 Y2.2257 I0.0467 J0.0001
G3 X0.293 Y2.2099 I0.04 J0.0193
G3 X0.2973 Y2.207 I0.027 J0.0363
G3 X0.3019 Y2.2046 I0.0233 J0.0393
G3 X0.3109 Y2.2009 I0.0506 J0.1082
G1 X0.311 Y2.2008
G1 X0.3144 Y2.1996
G3 X0.3145 I0.0013 J0.0038
G3 X0.3189 Y2.1987 I0.0066 J0.0208
G3 X0.323 Y2.1984 I0.0056 J0.0521
G3 X0.3275 Y2.1987 I0.0005 J0.0259
G3 X0.3294 Y2.199 I-0.0232 J0.1435
G3 X0.3297 Y2.1991 I-0.0007 J0.0039
G1 X0.3315 Y2.1995
G3 X0.3336 Y2.2002 I-0.0052 J0.0195
G3 X0.3353 Y2.2008 I-0.0068 J0.0211
G3 X0.3408 Y2.2028 I-0.0211 J0.0673
G3 X0.3464 Y2.2053 I-0.0234 J0.0595
G1 X0.3465 Y2.2054
G3 X0.3565 Y2.2128 I-0.0199 J0.0374
G3 X0.3605 Y2.2174 I-0.0305 J0.0307
G1 X0.3627 Y2.2203
G1 X0.3989
G1 Y1.9204
G1 X0.3844
G1 X0.3722 Y1.9326
G3 X0.3718 Y1.9329 I-0.0028 J-0.0028
G1 X0.3707 Y1.9338
G3 X0.3703 Y1.934 I-0.0024 J-0.0032
G3 X0.368 Y1.935 I-0.0044 J-0.0072
G3 X0.3656 Y1.9353 I-0.0023 J-0.0084
G1 X0.2808
G3 X0.2803 I0.0 J-0.004
G1 X0.2789 Y1.9351
G3 X0.2785 Y1.935 I0.0005 J-0.004
G3 X0.2762 Y1.9341 I0.002 J-0.0082
G3 X0.2743 Y1.9326 I0.0042 J-0.0074
G1 X0.2567 Y1.915
G3 X0.2564 Y1.9146 I0.0028 J-0.0028
G1 X0.2555 Y1.9135
G3 X0.2553 Y1.9132 I0.0032 J-0.0024
G3 X0.2543 Y1.9109 I0.0073 J-0.0044
G3 X0.254 Y1.9085 I0.0083 J-0.0023
G1 Y1.8836
G3 X0.2541 Y1.8831 I0.004 J0.0
G1 X0.2542 Y1.8818
G3 X0.2543 Y1.8814 I0.004 J0.0005
G3 X0.2553 Y1.879 I0.0081 J0.002
G3 X0.2567 Y1.8771 I0.0076 J0.0044
G1 X0.2743 Y1.8596
G3 X0.2747 Y1.8592 I0.0028 J0.0028
G1 X0.2757 Y1.8584
G3 X0.2761 Y1.8582 I0.0024 J0.0032
G3 X0.2784 Y1.8572 I0.0043 J0.007
G3 X0.2808 Y1.8569 I0.0023 J0.0085
G1 X0.3657
G3 X0.3662 I0.0 J0.004
G1 X0.3675 Y1.8571
G3 X0.3679 Y1.8572 I-0.0005 J0.004
G3 X0.3703 Y1.8581 I-0.002 J0.0081
G3 X0.3722 Y1.8596 I-0.0043 J0.0076
G1 X0.3829 Y1.8703
G1 X0.4305
G3 X0.431 I0.0 J0.004
G1 X0.4324 Y1.8705
G3 X0.4328 Y1.8706 I-0.0005 J0.004
G3 X0.4351 Y1.8716 I-0.002 J0.0081
G3 X0.4371 Y1.8731 I-0.0043 J0.0075
G1 X0.4463 Y1.8823
G3 X0.4466 Y1.8827 I-0.0028 J0.0028
G1 X0.4475 Y1.8838
G3 X0.4477 Y1.8841 I-0.0032 J0.0024
G3 X0.4487 Y1.8864 I-0.0072 J0.0044
G3 X0.449 Y1.8888 I-0.0083 J0.0023
G1 Y2.2519
G3 Y2.2525 I-0.004 J0.0
G1 X0.4488 Y2.2538
G3 X0.4487 Y2.2542 I-0.004 J-0.0005
G3 X0.4477 Y2.2565 I-0.0081 J-0.002
G3 X0.4468 Y2.2579 I-0.0076 J-0.0044
G0 Z0.125
G0 X0.3586 Y2.1783
G1 F10.0 Z-0.004
G3 F25.0 X0.3472 Y2.1875 I-0.0335 J-0.0302
G3 X0.3231 Y2.194 I-0.0242 J-0.0418
G3 X0.299 Y2.1874 I0.0002 J-0.0485
G3 X0.2819 Y2.1703 I0.0239 J-0.041
G3 X0.2753 Y2.1462 I0.0414 J-0.0242
G3 X0.2786 Y2.1291 I0.0455 J-0.0001
G3 X0.2878 Y2.1148 I0.0399 J0.0155
